!!!!SEGMENT: pl-kk--kk-i-477--007_vogel--missa-solemnis-et-incarnatus.krn
!!!cenid: 17xx:1904
!!!COM: Vogel
!!!COM-rismid: pe30003636
!!!CDT:
!!!CNT:
!!!OTL: Missa solemnis – Et incarnatus
!!!PDT:
!!!AGN: Sacred; Mass
!!!SMS-siglum: PL-Kk
!!!SMS-shelfmark: Kk.I.477
!!!SMS-shelfwork: 001-007 M
!!!SMS-variant:
!!!SMS-altvar:
!!!NIFC-rismid: 1001141397
!!!URL-scan: http://repozytorium.nifc.pl/skany/pl-kk-nut--i-477
!!!ONB-nifc: UWAGA: części Mszy: 1. Kyrie, 2. Gloria, 3. Qui tollis, 4. Quoniam, 5. Cum Sancto, 6. Credo, 7. Et incarnatus, 8. Et resurrexit, 9. Sanctus, 10. Benedictus, 11. Agnus Dei
**kern	**fba	**dynam	**kern	**dynam	**kern	**dynam	**kern	**dynam	**kern	**text	**dynam	**kern	**text	**dynam	**kern	**text	**dynam	**kern	**text	**dynam	**kern	**kern	**kern	**kern	**kern	**dynam	**kern	**dynam
*part14	*	*part14	*part13	*part13	*part12	*part12	*part11	*part11	*part10	*part10	*part10	*part9	*part9	*part9	*part8	*part8	*part8	*part7	*part7	*part7	*part6	*part5	*part4	*part3	*part2	*part2	*part1	*part1
*group	*group	*group	*group3	*group3	*group3	*group3	*group3	*group3	*group2	*group2	*group2	*group2	*group2	*group2	*group2	*group2	*group2	*group2	*group2	*group2	*group	*group1	*group1	*group1	*group1	*group1	*group1	*group1
*staff14	*	*	*staff13	*	*staff12	*	*staff11	*	*staff10	*staff10	*	*staff9	*staff9	*	*staff8	*staff8	*	*staff7	*staff7	*	*staff6	*staff5	*staff4	*staff3	*staff2	*	*staff1	*
*I"Organo.	*	*	*I"Viola	*	*I"Violino II:do	*	*I"Violino I:mo	*	*I"Baſso.	*	*	*I"Tenore.	*	*	*I"Alto.	*	*	*I"Canto.	*	*	*I"Tympani in C.	*I"Clarino 2:do in C.	*I"Clarino Primo in C.	*I"Clarino Principale. in C.	*I"Oboa II.da	*	*I"Oboa I.mo	*
*I'org	*	*	*I'vla	*	*I'vl 2	*	*I'vl 1	*	*I'B	*	*	*I'T	*	*	*I'A	*	*	*I'S	*	*	*I'timp	*I'clno 2	*I'clno 1	*I'clno	*I'ob 2	*	*I'ob 1	*
*clefF4	*	*	*clefC3	*	*clefG2	*	*clefG2	*	*clefF4	*	*	*clefC4	*	*	*clefC3	*	*	*clefC1	*	*	*clefF4	*clefG2	*clefG2	*clefG2	*clefG2	*	*clefG2	*
*k[b-e-]	*	*	*k[b-e-]	*	*k[b-e-]	*	*k[b-e-]	*	*k[b-e-]	*	*	*k[b-e-]	*	*	*k[b-e-]	*	*	*k[b-e-]	*	*	*k[]	*k[]	*k[]	*k[]	*k[b-e-]	*	*k[b-e-]	*
*g:	*	*	*g:	*	*g:	*	*g:	*	*g:	*	*	*g:	*	*	*g:	*	*	*g:	*	*	*g:	*g:	*g:	*g:	*g:	*	*g:	*
*M2/4	*	*	*M2/4	*	*M2/4	*	*M2/4	*	*M2/4	*	*	*M2/4	*	*	*M2/4	*	*	*M2/4	*	*	*M2/4	*M2/4	*M2/4	*M2/4	*M2/4	*	*M2/4	*
=1	=1	=1	=1	=1	=1	=1	=1	=1	=1	=1	=1	=1	=1	=1	=1	=1	=1	=1	=1	=1	=1	=1	=1	=1	=1	=1	=1	=1
*2\right	*	*	*2\right	*	*2\right	*	*2\right	*	*	*	*	*2\right	*	*	*2\right	*	*	*2\right	*	*	*	*	*	*	*2\right	*	*2\right	*
!LO:TX:b:t=P:problem:napis "Et incar:" na pięciolinii przed kluczem	!	!	!LO:TX:t=P:problem:8\, 16\left or middle	!	!LO:TX:t=P:problem:4\, 8\, 16\middle	!	!LO:TX:t=P:problem:4\, 8\, 16\, 32\left or middle	!	!LO:TX:t=P:problem:4\, 8\, 16\, 32\middle or right	!	!	!	!	!	!LO:TX:t=P:problem:4\, 8\, 16\, 32\middle or right	!	!	!LO:TX:t=P:problem:4\, 8\, 16\, 32\middle or right	!	!	!	!	!	!	!LO:TX:b:t=P:problem:napis "Et incar:" na pięciolinii przed kluczem	!	!LO:TX:b:t=P:problem:napis "Et incar:" na pięciolinii przed kluczem	!
!LO:TX:a:i:t=adagio.:rj	!	!	!	!	!LO:TX:b:t=P:problem:napis "Et in Car:" na pięciolinii przed kluczem	!	!LO:TX:t=P:problem:2\right:global	!	!	!	!	!LO:TX:t=P:problem:4\, 8\, 16\, 32\middle or right	!	!	!	!	!	!LO:TX:a:i:t=ada[gio]&colon;:rj	!	!	!	!	!	!	!LO:TX:a:i:t=Sol	!	!	!
!LO:TX:a:i:t=Solo.	!	!	!LO:TX:a:i:t=adagio.:rj	!	!LO:TX:B:b:t=Et in Car&colon;	!	!LO:TX:b:t=P:problem:napis "Et incar:" na pięciolinii przed kluczem	!	!LO:TX:t=28.	!	!	!	!	!	!LO:TX:a:i:t=adagio:rj	!	!	!LO:TX:t=29.	!	!	!	!	!	!	!LO:TX:a:i:t=ada[gi]o:rj	!	!LO:TX:a:i:t=ada[gi]o:rj	!
!LO:TX:B:b:t=Et incar&colon;	!	!LO:DY:b:t=fpo.	!LO:TX:b:B:t=Et incarnatus	!	!LO:TX:a:i:t=adagio	!LO:DY:a:t=po&colon;	!LO:TX:a:i:t=Adagio:rj	!LO:DY:a:t=fp&colon;	!LO:TX:a:i:t=ada[gio]&colon;:rj	!	!	!LO:TX:a:i:t=ada[gio]&colon;:rj	!	!	!LO:TX:t=29.	!	!	!LO:TX:t=P:problem:kolejność bemoli:b-, ee-	!	!	!LO:TX:b:B:t=Et in Carnatus Tace[t].	!LO:TX:b:B:t=Et in carnatus Tace[t].	!LO:TX:b:B:t=Et in carnatus Tace[t].	!LO:TX:b:B:t=Et incarnatus&colon; Tacet	!LO:TX:b:B:t=Et incar	!	!LO:TX:b:B:t=Et incar&colon;	!LO:DY:a
!	!	!	!LO:TX:b:t=P:problem:napis "Et incarnatus" na pięciolinii przed kluczem	!	!	!	!LO:TX:B:b:t=Et incar&colon;	!	!	!	!	!	!	!	!LO:TX:b:t=P:problem:napis "Et incarn:" na pięciolinii przed kluczem	!	!	!LO:TX:b:t=P:problem:napis "Et incar:" na pięciolinii przed kluczem	!	!	!LO:TX:b:t=P:problem:napis na pięciolinii	!LO:TX:b:t=P:problem:napis na pięciolinii	!LO:TX:b:t=P:problem:napis na pięciolinii	!LO:TX:b:t=P:problem:napis na pięciolinii	!	!	!	!
!LO:TX:a:t=P:problem:w bc po bemolu jest kropka	!	!	!	!	!	!	!	!	!	!	!	!LO:TX:t=P:problem:inicjał na pięciolinii przed kluczem	!	!	!LO:TX:B:b:t=Et incarn&colon;	!	!	!LO:TX:B:b:t=Et incar&colon;	!	!	!	!	!	!	!	!	!	!
!	!	!	!	!LO:DY:b:t=fp&colon;	!	!	!	!	!LO:TX:b:t=P:problem:jedna pauza wielotaktowa	!	!	!LO:N:vis=00	!	!	!LO:TX:b:t=P:problem:jedna pauza wielotaktowa	!	!	!LO:TX:b:t=P:problem:jedna pauza wielotaktowa	!	!	!	!	!	!	!	!LO:DY:b:t=po	!	!LO:DY:a:t=po
16G\LL	X -	fp	16G/LL	fp	16.b-\LL	p	16.dd\LL	fp	2r	.	.	0r	.	.	2r	.	.	2r	.	.	2ryy	2ryy	2ryy	2ryy	2b-\	p	2dd\	p
16G\	.	.	16G/	.	.	.	.	.	.	.	.	.	.	.	.	.	.	.	.	.	.	.	.	.	.	.	.	.
!	!	!	!	!	!LO:TX:a:t=P:problem:niejednoznaczny zapis łuku	!	!	!	!	!	!	!	!	!	!	!	!	!	!	!	!	!	!	!	!	!	!	!
.	.	.	.	.	(>64cc\LL	.	(>64ee-\LL	.	.	.	.	.	.	.	.	.	.	.	.	.	.	.	.	.	.	.	.	.
.	.	.	.	.	64b-\JJJJ)	.	64dd\JJJJ)	.	.	.	.	.	.	.	.	.	.	.	.	.	.	.	.	.	.	.	.	.
16G\	.	.	16G/	.	16g/	.	16b-\	.	.	.	.	.	.	.	.	.	.	.	.	.	.	.	.	.	.	.	.	.
16G\JJ	.	.	16G/JJ	.	16r	.	32r	.	.	.	.	.	.	.	.	.	.	.	.	.	.	.	.	.	.	.	.	.
!	!	!	!	!	!	!	!	!LO:DY:a:t=po&colon;	!	!	!	!	!	!	!	!	!	!	!	!	!	!	!	!	!	!	!	!
.	.	.	.	.	.	.	32b-\|	p	.	.	.	.	.	.	.	.	.	.	.	.	.	.	.	.	.	.	.	.
*	*	*	*tremolo	*	*	*	*	*	*	*	*	*	*	*	*	*	*	*	*	*	*	*	*	*	*	*	*	*
16G\LL	.	.	16G/LL	.	32g/|	.	(>(<8b-\L	.	.	.	.	.	.	.	.	.	.	.	.	.	.	.	.	.	.	.	.	.
.	X _	.	.	.	8g/L	.	.	.	.	.	.	.	.	.	.	.	.	.	.	.	.	.	.	.	.	.	.	.
16G\	.	.	16G/	.	.	.	.	.	.	.	.	.	.	.	.	.	.	.	.	.	.	.	.	.	.	.	.	.
16G\	x	.	16G/	.	.	.	16g\Jk))	.	.	.	.	.	.	.	.	.	.	.	.	.	.	.	.	.	.	.	.	.
.	.	.	.	.	16B-/Jk	.	.	.	.	.	.	.	.	.	.	.	.	.	.	.	.	.	.	.	.	.	.	.
16G\JJ	.	.	16G/JJ	.	.	.	16r	.	.	.	.	.	.	.	.	.	.	.	.	.	.	.	.	.	.	.	.	.
!	!	!	!	!	!LO:N:vis=16	!	!	!	!	!	!	!	!	!	!	!	!	!	!	!	!	!	!	!	!	!	!	!
.	.	.	.	.	32r	.	.	.	.	.	.	.	.	.	.	.	.	.	.	.	.	.	.	.	.	.	.	.
*	*	*	*Xtremolo	*	*	*	*	*	*	*	*	*	*	*	*	*	*	*	*	*	*	*	*	*	*	*	*	*
=2	=2	=2	=2	=2	=2	=2	=2	=2	=2	=2	=2	=2	=2	=2	=2	=2	=2	=2	=2	=2	=2	=2	=2	=2	=2	=2	=2	=2
!	!	!	!	!LO:DY:a:t=fp&colon;	!	!LO:DY:a:t=fp&colon;	!	!LO:DY:a:t=fp&colon;:rj	!	!	!	!	!	!	!	!	!	!	!	!	!	!	!	!	!	!	!	!
16G\LL	6 4	.	16C/LL	fp	(<8e-/L	f	16.gg\LL	fp	2r	.	.	.	.	.	2r	.	.	2r	.	.	2ryy	2ryy	2ryy	2ryy	[>4cc\	.	[>4ee-\	.
16G\	.	.	16G/	.	.	.	.	.	.	.	.	.	.	.	.	.	.	.	.	.	.	.	.	.	.	.	.	.
.	.	.	.	.	.	.	(>64aa\LL	.	.	.	.	.	.	.	.	.	.	.	.	.	.	.	.	.	.	.	.	.
.	.	.	.	.	.	.	64gg\JJJJ)	.	.	.	.	.	.	.	.	.	.	.	.	.	.	.	.	.	.	.	.	.
16G\	.	.	16G/	.	16cc/Jk)	.	16ee-\|	.	.	.	.	.	.	.	.	.	.	.	.	.	.	.	.	.	.	.	.	.
16G\JJ	X _	.	16G/JJ	.	16r	.	32r	.	.	.	.	.	.	.	.	.	.	.	.	.	.	.	.	.	.	.	.	.
.	.	.	.	.	.	.	32ee-\|	.	.	.	.	.	.	.	.	.	.	.	.	.	.	.	.	.	.	.	.	.
16G\LL	x	.	16G/LL	.	8cc/L	.	(>8ee-\L	.	.	.	.	.	.	.	.	.	.	.	.	.	.	.	.	.	8cc\]	.	8ee-\]	.
16G\	.	.	16G/	.	.	.	.	.	.	.	.	.	.	.	.	.	.	.	.	.	.	.	.	.	.	.	.	.
16G\JJ	.	.	16G/JJ	.	16e-/Jk	.	16cc\Jk)	.	.	.	.	.	.	.	.	.	.	.	.	.	.	.	.	.	8r	.	8r	.
16r	.	.	16r	.	16r	.	32r	.	.	.	.	.	.	.	.	.	.	.	.	.	.	.	.	.	.	.	.	.
!	!	!	!	!	!	!	!	!LO:DY:a:t=fo&colon;	!	!	!	!	!	!	!	!	!	!	!	!	!	!	!	!	!	!	!	!
.	.	.	.	.	.	.	32d/|	f	.	.	.	.	.	.	.	.	.	.	.	.	.	.	.	.	.	.	.	.
=3	=3	=3	=3	=3	=3	=3	=3	=3	=3	=3	=3	=3	=3	=3	=3	=3	=3	=3	=3	=3	=3	=3	=3	=3	=3	=3	=3	=3
*	*	*	*	*	*	*	*	*^	*	*	*	*	*	*	*	*	*	*	*	*	*	*	*	*	*	*	*	*
!	!	!	!	!	!	!	!	!LO:HP:a	!LO:HP:b:t=decres&colon;	!	!	!	!	!	!	!	!	!	!	!	!	!	!	!	!	!	!	!	!
8D\	X #	.	8r	.	8r	.	2dd\	>	>	2r	.	.	.	.	.	2r	.	.	2r	.	.	2ryy	2ryy	2ryy	2ryy	8r	.	8r	.
!	!	!	!LO:TX:a:i:t=dolce	!	!LO:TX:a:i:t=dol.	!	!	!	!	!	!	!	!	!	!	!	!	!	!	!	!	!	!	!	!	!	!	!	!
!	!	!	!	!	!LO:TX:a:t=P:problem:niejednoznaczny zapis łuków	!	!	!	!	!	!	!	!	!	!	!	!	!	!	!	!	!	!	!	!	!	!LO:DY:b:t=p&colon;	!	!LO:DY:b:t=pp&colon;
8r	.	.	(<8F#X/L	.	(>16cc\LL	.	.	.	.	.	.	.	.	.	.	.	.	.	.	.	.	.	.	.	.	(>8cc\L	p	(>8ff#X\L	pp
.	.	.	.	.	16a\JJ)	.	.	.	.	.	.	.	.	.	.	.	.	.	.	.	.	.	.	.	.	.	.	.	.
8D\	.	.	8G/	.	16b-\LL	.	.	.	.	.	.	.	.	.	.	.	.	.	.	.	.	.	.	.	.	8b-\	.	8gg\	.
.	.	.	.	.	16g\	.	.	.	.	.	.	.	.	.	.	.	.	.	.	.	.	.	.	.	.	.	.	.	.
8r	.	.	8F#/J)	.	(>16cc\	.	.	.	.	.	.	.	.	.	.	.	.	.	.	.	.	.	.	.	.	8cc\J)	.	8ff#\J)	.
.	.	.	.	.	16a\JJ)	.	.	]	.	.	.	.	.	.	.	.	.	.	.	.	.	.	.	.	.	.	.	.	.
*	*	*	*	*	*	*	*	*v	*v	*	*	*	*	*	*	*	*	*	*	*	*	*	*	*	*	*	*	*	*
=4	=4	=4	=4	=4	=4	=4	=4	=4	=4	=4	=4	=4	=4	=4	=4	=4	=4	=4	=4	=4	=4	=4	=4	=4	=4	=4	=4	=4
!	!	!	!	!	!	!	!	!LO:DY:a:t=po&colon;	!	!	!	!	!	!	!	!	!	!	!	!	!	!	!	!	!	!	!	!
8GG/L	X -	.	8G/L	.	16cc/LL	.	16dd\LL	p	2r	.	.	.	.	.	2r	.	.	2r	.	.	2ryy	2ryy	2ryy	2ryy	8b-/L|	.	(>16gg\LL	.
.	.	.	.	.	(<16g/	.	(>16b-\	.	.	.	.	.	.	.	.	.	.	.	.	.	.	.	.	.	.	.	16dd\)	.
8C/	X 6	.	8c/	.	16e-/)	.	16cc\	.	.	.	.	.	.	.	.	.	.	.	.	.	.	.	.	.	(<16cc/L	.	(>16ee-\	.
.	.	.	.	.	16c/JJ	.	16a\JJ)	.	.	.	.	.	.	.	.	.	.	.	.	.	.	.	.	.	16a/JJ)	.	16cc\JJ)	.
!	!	!	!	!	!LO:LB:g=original	!	!LO:LB:g=original	!	!	!	!	!	!	!	!	!	!	!	!	!	!	!	!	!	!	!	!	!
8D/	X 4	.	8d/	.	16B-/LL	.	(<16g/LL	.	.	.	.	.	.	.	.	.	.	.	.	.	.	.	.	.	(<16g/LL	.	(>16b-\LL	.
.	.	.	.	.	(<16d/	.	16b-/	.	.	.	.	.	.	.	.	.	.	.	.	.	.	.	.	.	16b-/)	.	16dd\)	.
8D/J	X 3	.	8d/J	.	16c/)	.	16a/)	.	.	.	.	.	.	.	.	.	.	.	.	.	.	.	.	.	(<16a/	.	(>16cc\	.
.	.	.	.	.	16A/JJ	.	16f#X/JJ	.	.	.	.	.	.	.	.	.	.	.	.	.	.	.	.	.	16f#X/JJ)	.	16a\JJ)	.
!	!	!	!LO:LB:g=original	!	!	!	!	!	!	!	!	!	!	!	!	!	!	!	!	!	!	!	!	!	!	!	!	!
=5	=5	=5	=5	=5	=5	=5	=5	=5	=5	=5	=5	=5	=5	=5	=5	=5	=5	=5	=5	=5	=5	=5	=5	=5	=5	=5	=5	=5
!	!	!	!	!	!	!	!	!	!	!	!	!LO:TX:a:i:t=Solo:rj	!	!	!	!	!	!	!	!	!	!	!	!	!	!	!	!
8GG/	X -	.	16d/LL	.	(<16B-/LL	.	(<16g'</LL	.	2r	.	.	4d\	Et	.	2r	.	.	2r	.	.	2ryy	2ryy	2ryy	2ryy	8g/	.	8b-/	.
.	.	.	(<16G'</	.	16d/)	.	16b-'</	.	.	.	.	.	.	.	.	.	.	.	.	.	.	.	.	.	.	.	.	.
8r	.	.	16G'</	.	16d/|	.	16b-'</	.	.	.	.	.	.	.	.	.	.	.	.	.	.	.	.	.	8r	.	8r	.
.	.	.	16G'</JJ)	.	16d/JJ|	.	16b-'</JJ)	.	.	.	.	.	.	.	.	.	.	.	.	.	.	.	.	.	.	.	.	.
8GG/	.	.	16r	.	16r	.	16r	.	.	.	.	(>16c\LL	in-	.	.	.	.	.	.	.	.	.	.	.	4r	.	4r	.
.	.	.	(<16G'</LL	.	(<16d'</LL	.	(<16b-'</LL	.	.	.	.	16B-\JJ)	.	.	.	.	.	.	.	.	.	.	.	.	.	.	.	.
8r	.	.	16G'</	.	16d'</	.	16b-'</	.	.	.	.	(<16A/LL	-car-	.	.	.	.	.	.	.	.	.	.	.	.	.	.	.
.	.	.	16G'</JJ)	.	16d'</JJ)	.	16b-'</JJ)	.	.	.	.	16G/JJ)	.	.	.	.	.	.	.	.	.	.	.	.	.	.	.	.
!LO:LB:g=original	!	!	!	!	!	!	!	!	!	!	!	!	!	!	!	!	!	!	!	!	!	!	!	!	!	!	!	!
=6	=6	=6	=6	=6	=6	=6	=6	=6	=6	=6	=6	=6	=6	=6	=6	=6	=6	=6	=6	=6	=6	=6	=6	=6	=6	=6	=6	=6
!	!	!	!	!	!	!	!	!	!	!	!	!	!	!	!	!	!	!	!	!	!	!	!	!	!LO:TX:t=19.	!	!	!
!	!	!	!	!	!	!	!	!	!	!	!	!	!	!	!	!	!	!	!	!	!	!	!	!	!LO:N:vis=00	!	!	!
8GG/	6 4	.	16r	.	16r	.	16r	.	2r	.	.	16G/|	-na-	.	2r	.	.	2r	.	.	2ryy	2ryy	2ryy	2ryy	0r	.	8r	.
.	.	.	(<16G'</LL	.	(<16e-'</LL	.	(>16cc'>\LL	.	.	.	.	16c\|	-tus	.	.	.	.	.	.	.	.	.	.	.	.	.	.	.
8r	.	.	16G'</	.	16e-'</	.	16cc'>\	.	.	.	.	8e-\	est	.	.	.	.	.	.	.	.	.	.	.	.	.	8gg\	.
.	.	.	16G'</JJ)	.	16e-'</JJ)	.	16cc'>\JJ)	.	.	.	.	.	.	.	.	.	.	.	.	.	.	.	.	.	.	.	.	.
8GG/	_ _	.	16r	.	16r	.	16r	.	.	.	.	4r	.	.	.	.	.	.	.	.	.	.	.	.	.	.	(>16ff\LL	.
.	x	.	(<16G'</LL	.	(<16e-'</LL	.	(>16cc'>\LL	.	.	.	.	.	.	.	.	.	.	.	.	.	.	.	.	.	.	.	16ee-\	.
8r	.	.	16G'</	.	16e-'</	.	16cc'>\	.	.	.	.	.	.	.	.	.	.	.	.	.	.	.	.	.	.	.	16dd\	.
.	.	.	16G'</JJ)	.	16e-'</JJ)	.	16cc'>\JJ)	.	.	.	.	.	.	.	.	.	.	.	.	.	.	.	.	.	.	.	16cc\JJ)	.
=7	=7	=7	=7	=7	=7	=7	=7	=7	=7	=7	=7	=7	=7	=7	=7	=7	=7	=7	=7	=7	=7	=7	=7	=7	=7	=7	=7	=7
!LO:TX:a:t=P:problem:trudny do identyfikacji znak w bc. Przyjęto "6 5"	!	!	!	!	!	!	!	!	!	!	!	!	!	!	!	!	!	!	!	!	!	!	!	!	!	!	!	!
8F#X\	6 5	.	16r	.	16r	.	16r	.	2r	.	.	4A/	de	.	2r	.	.	2r	.	.	2ryy	2ryy	2ryy	2ryy	.	.	8dd\	.
.	.	.	(>16d'>\LL	.	(<16a'</LL	.	(>16cc'>\LL	.	.	.	.	.	.	.	.	.	.	.	.	.	.	.	.	.	.	.	.	.
8r	.	.	16d'>\	.	16a'</	.	16cc'>\	.	.	.	.	.	.	.	.	.	.	.	.	.	.	.	.	.	.	.	8r	.
.	.	.	16d'>\JJ)	.	16a'</JJ)	.	16cc'>\JJ)	.	.	.	.	.	.	.	.	.	.	.	.	.	.	.	.	.	.	.	.	.
8F#\	.	.	16r	.	16r	.	16r	.	.	.	.	16d\	spi-	.	.	.	.	.	.	.	.	.	.	.	.	.	4r	.
.	.	.	(>16d'>\LL	.	(<16a'</LL	.	(>16cc'>\LL	.	.	.	.	16c\|	-ri-	.	.	.	.	.	.	.	.	.	.	.	.	.	.	.
8r	.	.	16d'>\	.	16a'</	.	16cc'>\	.	.	.	.	16c\|	-tu	.	.	.	.	.	.	.	.	.	.	.	.	.	.	.
.	.	.	16d'>\JJ)	.	16a'</JJ)	.	16cc'>\JJ)	.	.	.	.	16ryy	.	.	.	.	.	.	.	.	.	.	.	.	.	.	.	.
=8	=8	=8	=8	=8	=8	=8	=8	=8	=8	=8	=8	=8	=8	=8	=8	=8	=8	=8	=8	=8	=8	=8	=8	=8	=8	=8	=8	=8
.	.	.	.	.	8qa/	.	8qqcc/	.	.	.	.	8qqc/	.	.	.	.	.	.	.	.	.	.	.	.	.	.	.	.
!LO:TX:a:t=P:problem:złe renderowanie	!	!	!	!	!	!	!	!	!	!	!	!	!	!	!	!	!	!	!	!	!	!	!	!	!	!	!	!
8G\L	X -	.	8d\L	.	16g/LL	.	16b-/LL	.	2r	.	.	8B-\	san-	.	2r	.	.	2r	.	.	2ryy	2ryy	2ryy	2ryy	.	.	4r	.
.	.	.	.	.	(<64f#X/LL	.	(<64a/LL	.	.	.	.	.	.	.	.	.	.	.	.	.	.	.	.	.	.	.	.	.
.	.	.	.	.	64g/JJJJ)	.	64b-/JJJJ)	.	.	.	.	.	.	.	.	.	.	.	.	.	.	.	.	.	.	.	.	.
.	.	.	.	.	32ryy	.	32ryy	.	.	.	.	.	.	.	.	.	.	.	.	.	.	.	.	.	.	.	.	.
8D\	X #	.	8d\J	.	16f#/LL|	.	16a/LL|	.	.	.	.	8A\	-cto.	.	.	.	.	.	.	.	.	.	.	.	.	.	.	.
.	.	.	.	.	16f#/JJ|	.	16a/JJ|	.	.	.	.	.	.	.	.	.	.	.	.	.	.	.	.	.	.	.	.	.
8D\	X _	.	4r	.	16r	.	16r	.	.	.	.	4r	.	.	.	.	.	.	.	.	.	.	.	.	.	.	(>16dd\LL	.
.	.	.	.	.	(<16f#'</LL	.	(<16a'</LL	.	.	.	.	.	.	.	.	.	.	.	.	.	.	.	.	.	.	.	16ff#X\)	.
8D\J	x	.	.	.	16f#'</	.	16a'</	.	.	.	.	.	.	.	.	.	.	.	.	.	.	.	.	.	.	.	(>16ff#\	.
.	.	.	.	.	16f#'</JJ)	.	16a'</JJ)	.	.	.	.	.	.	.	.	.	.	.	.	.	.	.	.	.	.	.	16aa\JJ)	.
!	!	!	!	!	!LO:LB:g=original	!	!	!	!	!	!	!LO:PB:g=original	!	!	!	!	!	!	!	!	!	!	!	!	!	!	!LO:LB:g=original	!
=9	=9	=9	=9	=9	=9	=9	=9	=9	=9	=9	=9	=9	=9	=9	=9	=9	=9	=9	=9	=9	=9	=9	=9	=9	=9	=9	=9	=9
8D/	X _	.	16r	.	16r	.	16r	.	2r	.	.	(>8.d\L	et	.	2r	.	.	2r	.	.	2ryy	2ryy	2ryy	2ryy	.	.	8ff#X\	.
.	x	.	(>16d'>\LL	.	(<16f#X'</LL	.	(<16a'</LL	.	.	.	.	.	.	.	.	.	.	.	.	.	.	.	.	.	.	.	.	.
8r	.	.	16d'>\	.	16f#'</	.	16a'</	.	.	.	.	.	.	.	.	.	.	.	.	.	.	.	.	.	.	.	8r	.
.	.	.	16d'>\JJ)	.	16f#'</JJ)	.	16a'</JJ)	.	.	.	.	16en\Jk)	.	.	.	.	.	.	.	.	.	.	.	.	.	.	.	.
.	.	.	.	.	.	.	.	.	.	.	.	(<8qqg/	.	.	.	.	.	.	.	.	.	.	.	.	.	.	.	.
!	!	!	!	!	!	!	!LO:LB:g=original	!	!	!	!	!	!	!	!	!	!	!	!	!	!	!	!	!	!	!	!	!
8C/	X _	.	16r	.	16r	.	16r	.	.	.	.	8f#X\)	in-	.	.	.	.	.	.	.	.	.	.	.	.	.	4r	.
.	x	.	(>16d'>\LL	.	(<16f#'</LL	.	(<16a'</LL	.	.	.	.	.	.	.	.	.	.	.	.	.	.	.	.	.	.	.	.	.
8r	.	.	16d'>\	.	16f#'</	.	16a'</	.	.	.	.	(>16en\LL	-car-	.	.	.	.	.	.	.	.	.	.	.	.	.	.	.
.	.	.	16d'>\JJ)	.	16f#'</JJ)	.	16a'</JJ)	.	.	.	.	16d\JJ)	.	.	.	.	.	.	.	.	.	.	.	.	.	.	.	.
=10	=10	=10	=10	=10	=10	=10	=10	=10	=10	=10	=10	=10	=10	=10	=10	=10	=10	=10	=10	=10	=10	=10	=10	=10	=10	=10	=10	=10
!	!	!	!	!	!	!	!	!	!	!	!	!	!	!	!	!	!	!	!	!	!	!	!	!	!LO:N:vis=00	!	!	!
8BB-/	X 6	.	16r	.	16r	.	16r	.	2r	.	.	16g\|	-na-	.	2r	.	.	2r	.	.	2ryy	2ryy	2ryy	2ryy	0r	.	8r	.
.	.	.	(>16d'>\LL	.	(<16g'</LL	.	(<16g'</LL	.	.	.	.	16d\|	-tuſ	.	.	.	.	.	.	.	.	.	.	.	.	.	.	.
8r	.	.	16d'>\	.	16g'</	.	16g'</	.	.	.	.	8d\	est	.	.	.	.	.	.	.	.	.	.	.	.	.	(>16gg\LL	.
.	.	.	16d'>\JJ)	.	16g'</JJ)	.	16g'</JJ)	.	.	.	.	.	.	.	.	.	.	.	.	.	.	.	.	.	.	.	16ff#X\JJ)	.
8GG/	X -	.	16r	.	16r	.	16r	.	.	.	.	8r	.	.	.	.	.	.	.	.	.	.	.	.	.	.	(>16gg\LL	.
.	.	.	(>16d'>\LL	.	(<16g'</LL	.	(<16b-'</LL	.	.	.	.	.	.	.	.	.	.	.	.	.	.	.	.	.	.	.	16aa\	.
8r	.	.	16d'>\	.	16g'</	.	16b-'</	.	.	.	.	8d\	de	.	.	.	.	.	.	.	.	.	.	.	.	.	16bb-\)	.
.	.	.	16d'>\JJ)	.	16g'</JJ)	.	16b-'</JJ)	.	.	.	.	.	.	.	.	.	.	.	.	.	.	.	.	.	.	.	16gg\JJ	.
!	!	!	!LO:LB:g=original	!	!	!	!	!	!	!	!	!	!	!	!	!	!	!	!	!	!	!	!	!	!	!	!	!
=11	=11	=11	=11	=11	=11	=11	=11	=11	=11	=11	=11	=11	=11	=11	=11	=11	=11	=11	=11	=11	=11	=11	=11	=11	=11	=11	=11	=11
!	!	!	!	!	!	!	!LO:TX:t=P:problem:mixed beam	!	!	!	!	!	!	!	!	!	!	!	!	!	!	!	!	!	!	!	!	!
8C/	X -	.	16e-'>\LL	.	16g/LL	.	16g/LL	.	2r	.	.	8e-X\	Spi-	.	2r	.	.	2r	.	.	2ryy	2ryy	2ryy	2ryy	.	.	2r	.
.	.	.	16c'>\	.	(<16cc/	.	(>16ee-\	.	.	.	.	.	.	.	.	.	.	.	.	.	.	.	.	.	.	.	.	.
8r	.	.	(>16d\	.	16b-/	.	16dd\	.	.	.	.	16d\|	-ri-	.	.	.	.	.	.	.	.	.	.	.	.	.	.	.
.	.	.	16e-\JJ)	.	16a/JJ)	.	16cc\JJ)	.	.	.	.	16c\|	-tu	.	.	.	.	.	.	.	.	.	.	.	.	.	.	.
8D/L	6 4	.	16d\	.	16g/	.	16b-/|	.	.	.	.	16B-/LL	Sa[n]-	.	.	.	.	.	.	.	.	.	.	.	.	.	.	.
.	.	.	16r	.	16r	.	16r	.	.	.	.	(<16G/	.	.	.	.	.	.	.	.	.	.	.	.	.	.	.	.
8D/J	5 #3r	.	16d\	.	16f#X/	.	16a/|	.	.	.	.	16A/	.	.	.	.	.	.	.	.	.	.	.	.	.	.	.	.
.	.	.	16r	.	16r	.	16r	.	.	.	.	16F#X/JJ)	.	.	.	.	.	.	.	.	.	.	.	.	.	.	.	.
=12	=12	=12	=12	=12	=12	=12	=12	=12	=12	=12	=12	=12	=12	=12	=12	=12	=12	=12	=12	=12	=12	=12	=12	=12	=12	=12	=12	=12
8GG/	X -	.	(>16B-\LL	.	(<16d/LL	.	(<16g/LL	.	2r	.	.	4G/	-cto	.	2r	.	.	2r	.	.	2ryy	2ryy	2ryy	2ryy	.	.	4r	.
.	.	.	16d\)	.	16g/)	.	16b-'</	.	.	.	.	.	.	.	.	.	.	.	.	.	.	.	.	.	.	.	.	.
8r	.	.	16d'>\	.	16g/|	.	16b-'</)	.	.	.	.	.	.	.	.	.	.	.	.	.	.	.	.	.	.	.	.	.
.	.	.	16d'>\JJ	.	16g/JJ|	.	16b-'</JJ	.	.	.	.	.	.	.	.	.	.	.	.	.	.	.	.	.	.	.	.	.
8GG/	.	.	16r	.	16r	.	16r	.	.	.	.	4r	.	.	.	.	.	.	.	.	.	.	.	.	.	.	(>16b-\LL	.
.	.	.	(>16d'>\LL	.	(<16g'</LL	.	(<16b-'</LL	.	.	.	.	.	.	.	.	.	.	.	.	.	.	.	.	.	.	.	16dd\)	.
8r	.	.	16d'>\	.	16g'</	.	16b-'</	.	.	.	.	.	.	.	.	.	.	.	.	.	.	.	.	.	.	.	(>16dd\	.
.	.	.	16d'>\JJ)	.	16g'</JJ)	.	16b-'</JJ)	.	.	.	.	.	.	.	.	.	.	.	.	.	.	.	.	.	.	.	16gg\JJ)	.
=13	=13	=13	=13	=13	=13	=13	=13	=13	=13	=13	=13	=13	=13	=13	=13	=13	=13	=13	=13	=13	=13	=13	=13	=13	=13	=13	=13	=13
8G\	X -	.	16r	.	16r	.	16r	.	2r	.	.	4.B-\	ex	.	2r	.	.	2r	.	.	2ryy	2ryy	2ryy	2ryy	.	.	8gg\	.
.	.	.	16G/LL	.	(<16d'</LL	.	(<16b-'</LL	.	.	.	.	.	.	.	.	.	.	.	.	.	.	.	.	.	.	.	.	.
8r	.	.	16G/	.	16d'</	.	16b-'</	.	.	.	.	.	.	.	.	.	.	.	.	.	.	.	.	.	.	.	8r	.
.	.	.	16G/JJ	.	16d'</JJ)	.	16b-'</JJ)	.	.	.	.	.	.	.	.	.	.	.	.	.	.	.	.	.	.	.	.	.
!	!	!	!	!	!LO:LB:g=original	!	!	!	!	!	!	!	!	!	!	!	!	!	!	!	!	!	!	!	!	!	!	!
8G\	X 6|	.	16r	.	16en/LL|	.	16r	.	.	.	.	.	.	.	.	.	.	.	.	.	.	.	.	.	.	.	4r	.
.	.	.	16c/LL	.	16e/JJ|	.	(<16b-'</LL	.	.	.	.	.	.	.	.	.	.	.	.	.	.	.	.	.	.	.	.	.
8r	.	.	16G/	.	16e/LL	.	16b-'</	.	.	.	.	8B-\	Ma-	.	.	.	.	.	.	.	.	.	.	.	.	.	.	.
.	.	.	16G/JJ	.	32d/L	.	16b-'</JJ)	.	.	.	.	.	.	.	.	.	.	.	.	.	.	.	.	.	.	.	.	.
.	.	.	.	.	32e/JJJ	.	.	.	.	.	.	.	.	.	.	.	.	.	.	.	.	.	.	.	.	.	.	.
!	!	!	!	!	!	!	!	!	!	!	!	!LO:LB:g=original	!	!	!	!	!	!	!	!	!	!	!	!	!	!	!	!
=14	=14	=14	=14	=14	=14	=14	=14	=14	=14	=14	=14	=14	=14	=14	=14	=14	=14	=14	=14	=14	=14	=14	=14	=14	=14	=14	=14	=14
!	!	!	!	!	!	!	!	!	!	!	!	!	!	!	!	!	!	!	!	!	!	!	!	!	!LO:N:vis=00	!	!	!
8Fn\	.	.	16r	.	16r	.	16r	.	2r	.	.	(>16B-\LL	-ri-	.	2r	.	.	2r	.	.	2ryy	2ryy	2ryy	2ryy	0r	.	8r	.
.	.	.	16c'</LL	.	(<16fn'</LL	.	(<16a'</LL	.	.	.	.	16A\JJ)	.	.	.	.	.	.	.	.	.	.	.	.	.	.	.	.
8r	.	.	16c'</	.	16f'</	.	16a'</	.	.	.	.	8F/	-a	.	.	.	.	.	.	.	.	.	.	.	.	.	8.aa\L	.
.	.	.	16c'</JJ	.	16f'</JJ)	.	16a'</JJ)	.	.	.	.	.	.	.	.	.	.	.	.	.	.	.	.	.	.	.	.	.
!	!	!	!	!	!	!	!LO:LB:g=original	!	!	!	!	!	!	!	!	!	!	!	!	!	!	!	!	!	!	!	!	!
8F\	.	.	16r	.	16r	.	16r	.	.	.	.	8r	.	.	.	.	.	.	.	.	.	.	.	.	.	.	.	.
.	.	.	16c'</LL	.	(<16f'</LL	.	(<16a'</LL	.	.	.	.	.	.	.	.	.	.	.	.	.	.	.	.	.	.	.	(>16ff\L	.
8r	.	.	16c'</	.	16f'</	.	16a'</	.	.	.	.	8c\|	Ma-	.	.	.	.	.	.	.	.	.	.	.	.	.	16cc\)	.
.	.	.	16c'</JJ	.	16f'</JJ)	.	16a'</JJ)	.	.	.	.	.	.	.	.	.	.	.	.	.	.	.	.	.	.	.	16cc\JJ|	.
!LO:LB:g=original	!	!	!	!	!	!	!	!	!	!	!	!	!	!	!	!	!	!	!	!	!	!	!	!	!	!	!	!
=15	=15	=15	=15	=15	=15	=15	=15	=15	=15	=15	=15	=15	=15	=15	=15	=15	=15	=15	=15	=15	=15	=15	=15	=15	=15	=15	=15	=15
8F\	6 4	.	16r	.	16r	.	16r	.	2r	.	.	(>16d\LL	-ri-	.	2r	.	.	2r	.	.	2ryy	2ryy	2ryy	2ryy	.	.	8b-\	.
.	.	.	16F'</LL	.	(<16d'</LL	.	(<16b-'</LL	.	.	.	.	16B-\JJ)	.	.	.	.	.	.	.	.	.	.	.	.	.	.	.	.
8r	.	.	16F'</	.	16d'</	.	16b-'</	.	.	.	.	(>16B-\LL	-a	.	.	.	.	.	.	.	.	.	.	.	.	.	8r	.
.	.	.	16F'</JJ	.	16d'</JJ)	.	16b-'</JJ)	.	.	.	.	16d\JJ)	.	.	.	.	.	.	.	.	.	.	.	.	.	.	.	.
8F\	.	.	16r	.	16r	.	16r	.	.	.	.	(>16d\LL	Vir-	.	.	.	.	.	.	.	.	.	.	.	.	.	4r	.
.	.	.	16F'</LL	.	(<16d'</LL	.	(<16b-'</LL	.	.	.	.	32e-\L	.	.	.	.	.	.	.	.	.	.	.	.	.	.	.	.
.	.	.	.	.	.	.	.	.	.	.	.	32f\JJJ)	.	.	.	.	.	.	.	.	.	.	.	.	.	.	.	.
8r	.	.	16F'</	.	16d'</	.	16b-'</	.	.	.	.	16e-\	-gi-	.	.	.	.	.	.	.	.	.	.	.	.	.	.	.
.	.	.	16F'</JJ	.	16d'</JJ)	.	16b-'</JJ)	.	.	.	.	16d'>\	.	.	.	.	.	.	.	.	.	.	.	.	.	.	.	.
=16	=16	=16	=16	=16	=16	=16	=16	=16	=16	=16	=16	=16	=16	=16	=16	=16	=16	=16	=16	=16	=16	=16	=16	=16	=16	=16	=16	=16
8F\L	X 3	.	16r	.	16r	.	16r	.	2r	.	.	4c\	-ne	.	2r	.	.	2r	.	.	2ryy	2ryy	2ryy	2ryy	.	.	8r	.
.	.	.	16F'</LL	.	(<16c'</LL	.	(<16a'</LL	.	.	.	.	.	.	.	.	.	.	.	.	.	.	.	.	.	.	.	.	.
8F\	.	.	16F'</	.	16c'</	.	16a'</	.	.	.	.	.	.	.	.	.	.	.	.	.	.	.	.	.	.	.	4cc\	.
.	.	.	16F'</JJ	.	16c'</JJ)	.	16a'</JJ)	.	.	.	.	.	.	.	.	.	.	.	.	.	.	.	.	.	.	.	.	.
8F\	.	.	8F/	.	16c/LL	.	16a/LL|	.	.	.	.	8r	.	.	.	.	.	.	.	.	.	.	.	.	.	.	.	.
.	.	.	.	.	16c/	.	16a/|	.	.	.	.	.	.	.	.	.	.	.	.	.	.	.	.	.	.	.	.	.
8D\J	X 6	.	8r	.	16f/	.	16b-/|	.	.	.	.	8B-\	et	.	.	.	.	.	.	.	.	.	.	.	.	.	(>16dd\LL	.
.	.	.	.	.	16f/JJ	.	16b-/JJ|	.	.	.	.	.	.	.	.	.	.	.	.	.	.	.	.	.	.	.	16ff\JJ)	.
!	!	!	!LO:LB:g=original	!	!	!	!	!	!	!	!	!	!	!	!	!	!	!	!	!	!	!	!	!	!	!	!	!
=17	=17	=17	=17	=17	=17	=17	=17	=17	=17	=17	=17	=17	=17	=17	=17	=17	=17	=17	=17	=17	=17	=17	=17	=17	=17	=17	=17	=17
8E-\L	4 2	.	8c\	.	16f/LL	.	16a/LL|	.	2r	.	.	16A\LL	ho-	.	2r	.	.	2r	.	.	2ryy	2ryy	2ryy	2ryy	.	.	2ff\	.
.	.	.	.	.	16f/JJ	.	16a/JJ|	.	.	.	.	(>16c\	.	.	.	.	.	.	.	.	.	.	.	.	.	.	.	.
8E-\	.	.	8r	.	16r	.	16r	.	.	.	.	16f\	.	.	.	.	.	.	.	.	.	.	.	.	.	.	.	.
.	.	.	.	.	16f/	.	16a/	.	.	.	.	16c\JJ)	.	.	.	.	.	.	.	.	.	.	.	.	.	.	.	.
*	*	*	*	*	*tremolo	*	*	*	*	*	*	*	*	*	*	*	*	*	*	*	*	*	*	*	*	*	*	*
*	*	*	*	*	*	*	*tremolo	*	*	*	*	*	*	*	*	*	*	*	*	*	*	*	*	*	*	*	*	*
8D\	X 6	.	16r	.	16f/LL	.	16b-/LL	.	.	.	.	8B-\|	-mo	.	.	.	.	.	.	.	.	.	.	.	.	.	.	.
.	.	.	16d'>\LL	.	16f/	.	16b-X/	.	.	.	.	.	.	.	.	.	.	.	.	.	.	.	.	.	.	.	.	.
8BB-\J	.	.	16d'>\	.	16f/	.	16b-X/	.	.	.	.	16r	.	.	.	.	.	.	.	.	.	.	.	.	.	.	.	.
!	!	!	!	!	!	!	!	!	!	!	!	!LO:N:vis=8	!	!	!	!	!	!	!	!	!	!	!	!	!	!	!	!
.	.	.	16d'>\JJ	.	16f/JJ	.	16b-X/JJ	.	.	.	.	16d\|	et	.	.	.	.	.	.	.	.	.	.	.	.	.	.	.
*	*	*	*	*	*Xtremolo	*	*Xtremolo	*	*	*	*	*	*	*	*	*	*	*	*	*	*	*	*	*	*	*	*	*
!	!	!	!	!	!LO:LB:g=original	!	!	!	!	!	!	!	!	!	!	!	!	!	!	!	!	!	!	!	!	!	!	!
=18	=18	=18	=18	=18	=18	=18	=18	=18	=18	=18	=18	=18	=18	=18	=18	=18	=18	=18	=18	=18	=18	=18	=18	=18	=18	=18	=18	=18
!LO:TX:a:t=P:problem:trudny do identyfikacji znak w bc. Przyjęto "6 5"	!	!	!	!	!	!	!	!	!	!	!	!	!	!	!	!	!	!	!	!	!	!	!	!	!	!	!	!
!	!	!	!	!	!	!	!	!	!	!	!	!	!	!	!	!	!	!	!	!	!	!	!	!	!LO:N:vis=00	!	!LO:N:vis=00	!
8AA/L	6 5	.	8A/	.	16f/LL|	.	16cc\LL|	.	2r	.	.	16f\LL	ho-	.	2r	.	.	2r	.	.	2ryy	2ryy	2ryy	2ryy	0r	.	0r	.
.	.	.	.	.	16f/JJ|	.	16cc\JJ|	.	.	.	.	16e\	.	.	.	.	.	.	.	.	.	.	.	.	.	.	.	.
8AA/	.	.	8r	.	16r	.	16r	.	.	.	.	16e-X\	.	.	.	.	.	.	.	.	.	.	.	.	.	.	.	.
.	.	.	.	.	16f/	.	16cc\|	.	.	.	.	16c\JJ	.	.	.	.	.	.	.	.	.	.	.	.	.	.	.	.
*	*	*	*	*	*tremolo	*	*tremolo	*	*	*	*	*	*	*	*	*	*	*	*	*	*	*	*	*	*	*	*	*
8BB-/	.	.	8B-/	.	16f/L	.	16b-\LL	.	.	.	.	8d\	-mo	.	.	.	.	.	.	.	.	.	.	.	.	.	.	.
.	.	.	.	.	16f/	.	16b-\	.	.	.	.	.	.	.	.	.	.	.	.	.	.	.	.	.	.	.	.	.
!	!	!	!	!	!	!	!	!	!	!	!	!LO:LB:g=original	!	!	!	!	!	!	!	!	!	!	!	!	!	!	!	!
8D/J	X 6	.	8r	.	16f/	.	16b-\	.	.	.	.	8f\|	et	.	.	.	.	.	.	.	.	.	.	.	.	.	.	.
.	.	.	.	.	16f/J	.	16b-\JJ	.	.	.	.	.	.	.	.	.	.	.	.	.	.	.	.	.	.	.	.	.
=19	=19	=19	=19	=19	=19	=19	=19	=19	=19	=19	=19	=19	=19	=19	=19	=19	=19	=19	=19	=19	=19	=19	=19	=19	=19	=19	=19	=19
*	*	*	*	*	*	*	*	*	*	*	*	*	*	*	*	*	*	*	*	*	*	*	*	*	*	*	*	*
8E-\L	X 9	.	8e-\L	.	16g/LL	.	16b-\LL	.	2r	.	.	16f\LL	ho-	.	2r	.	.	2r	.	.	2ryy	2ryy	2ryy	2ryy	.	.	.	.
.	.	.	.	.	16g/	.	16b-\	.	.	.	.	(>16g\	.	.	.	.	.	.	.	.	.	.	.	.	.	.	.	.
8E-\	X 8	.	8e-\	.	16g/	.	16b-\	.	.	.	.	16e-\)	.	.	.	.	.	.	.	.	.	.	.	.	.	.	.	.
.	.	.	.	.	16g/	.	16b-\JJ	.	.	.	.	16d\JJ	.	.	.	.	.	.	.	.	.	.	.	.	.	.	.	.
8C\	X -_	.	8c\	.	16g/	.	16cc\LL	.	.	.	.	8e-\|	-mo	.	.	.	.	.	.	.	.	.	.	.	.	.	.	.
.	.	.	.	.	16g/	.	16cc\	.	.	.	.	.	.	.	.	.	.	.	.	.	.	.	.	.	.	.	.	.
8BB-\J	.	.	8B-\J	.	16g/	.	16cc\	.	.	.	.	8e-\|	et	.	.	.	.	.	.	.	.	.	.	.	.	.	.	.
.	x	.	.	.	16g/JJ	.	16cc\JJ	.	.	.	.	.	.	.	.	.	.	.	.	.	.	.	.	.	.	.	.	.
*	*	*	*	*	*Xtremolo	*	*Xtremolo	*	*	*	*	*	*	*	*	*	*	*	*	*	*	*	*	*	*	*	*	*
=20	=20	=20	=20	=20	=20	=20	=20	=20	=20	=20	=20	=20	=20	=20	=20	=20	=20	=20	=20	=20	=20	=20	=20	=20	=20	=20	=20	=20
!LO:TX:a:t=P:problem:trudny do identyfikacji znak w bc. Przyjęto "6 5"	!	!	!	!	!	!	!	!	!	!	!	!	!	!	!	!	!	!	!	!	!	!	!	!	!	!	!	!
8AA/L	6 5	.	8c\	.	8f/	.	8r	.	2r	.	.	(>16e-\LL	ho-	.	2r	.	.	2r	.	.	2ryy	2ryy	2ryy	2ryy	.	.	.	.
.	.	.	.	.	.	.	.	.	.	.	.	16f\	.	.	.	.	.	.	.	.	.	.	.	.	.	.	.	.
8AA/	.	.	8r	.	16r	.	16r	.	.	.	.	16d\)	.	.	.	.	.	.	.	.	.	.	.	.	.	.	.	.
.	.	.	.	.	16e-/	.	16cc\|	.	.	.	.	16c\JJ	.	.	.	.	.	.	.	.	.	.	.	.	.	.	.	.
!	!	!	!	!	!	!	!LO:LB:g=original	!	!	!	!	!	!	!	!	!	!	!	!	!	!	!	!	!	!	!	!	!
*	*	*	*	*	*tremolo	*	*tremolo	*	*	*	*	*	*	*	*	*	*	*	*	*	*	*	*	*	*	*	*	*
8BB-/	.	.	8F/L	.	16d/LL	.	16b-\LL	.	.	.	.	8d'>\	-mo	.	.	.	.	.	.	.	.	.	.	.	.	.	.	.
.	.	.	.	.	16d/	.	16b-\	.	.	.	.	.	.	.	.	.	.	.	.	.	.	.	.	.	.	.	.	.
8BB-/J	.	.	8F/J	.	16d/	.	16b-\	.	.	.	.	8d'>\	et	.	.	.	.	.	.	.	.	.	.	.	.	.	.	.
.	.	.	.	.	16d/JJ	.	16b-\JJ	.	.	.	.	.	.	.	.	.	.	.	.	.	.	.	.	.	.	.	.	.
*	*	*	*	*	*Xtremolo	*	*Xtremolo	*	*	*	*	*	*	*	*	*	*	*	*	*	*	*	*	*	*	*	*	*
=21	=21	=21	=21	=21	=21	=21	=21	=21	=21	=21	=21	=21	=21	=21	=21	=21	=21	=21	=21	=21	=21	=21	=21	=21	=21	=21	=21	=21
.	.	.	.	.	.	.	.	.	.	.	.	(<8qqd/	.	.	.	.	.	.	.	.	.	.	.	.	.	.	.	.
!LO:TX:a:t=P:problem:złe renderowanie	!	!	!	!	!	!	!	!	!	!	!	!	!	!	!	!	!	!	!	!	!	!	!	!	!	!	!	!
!LO:TX:a:t=P:problem:trudny do identyfikacji znak w bc. Przyjęto "6 5"	!	!	!	!	!	!	!	!	!	!	!	!	!	!	!	!	!	!	!	!	!	!	!	!	!	!	!	!
8E-\	6 5	.	16r	.	16r	.	16r	.	2r	.	.	(>8c\L)	ho-	.	2r	.	.	2r	.	.	2ryy	2ryy	2ryy	2ryy	.	.	.	.
.	.	.	16g'>\LL	.	(<16b-'</LL	.	(>16cc'>\LL	.	.	.	.	.	.	.	.	.	.	.	.	.	.	.	.	.	.	.	.	.
8r	.	.	16g'>\	.	16b-'</	.	16cc'>\	.	.	.	.	16B-\L	.	.	.	.	.	.	.	.	.	.	.	.	.	.	.	.
.	.	.	16g'>\JJ	.	16b-'</JJ)	.	16cc'>\JJ)	.	.	.	.	16c\JJ)	.	.	.	.	.	.	.	.	.	.	.	.	.	.	.	.
.	.	.	.	.	.	.	.	.	.	.	.	(<8qqe-/	.	.	.	.	.	.	.	.	.	.	.	.	.	.	.	.
!LO:TX:a:t=P:problem:trudny do identyfikacji znak w bc. Przyjęto "6 5"	!	!	!	!	!	!	!	!	!	!	!	!	!	!	!	!	!	!	!	!	!	!	!	!	!	!	!	!
8F\	6 4	.	16r	.	16r	.	16r	.	.	.	.	(>8d\L)	.	.	.	.	.	.	.	.	.	.	.	.	.	.	.	.
.	.	.	16f'>\LL	.	(<16b-'</LL	.	(>16dd'>\LL	.	.	.	.	.	.	.	.	.	.	.	.	.	.	.	.	.	.	.	.	.
8r	.	.	16f'>\	.	16b-'</	.	16dd'>\	.	.	.	.	16c\L	.	.	.	.	.	.	.	.	.	.	.	.	.	.	.	.
.	.	.	16f'>\JJ	.	16b-'</JJ)	.	16dd'>\JJ)	.	.	.	.	16d\JJ)	.	.	.	.	.	.	.	.	.	.	.	.	.	.	.	.
=22	=22	=22	=22	=22	=22	=22	=22	=22	=22	=22	=22	=22	=22	=22	=22	=22	=22	=22	=22	=22	=22	=22	=22	=22	=22	=22	=22	=22
*	*	*	*	*	*tremolo	*	*	*	*	*	*	*	*	*	*	*	*	*	*	*	*	*	*	*	*	*	*	*
!	!	!	!	!	!	!	!	!	!	!	!	!	!	!	!	!	!	!	!	!	!	!	!	!	!LO:N:vis=0	!	!LO:N:vis=0	!
4G\	X 6	.	8e-\	.	16b-\LL	.	16r	.	2r	.	.	8e-\	-mo	.	2r	.	.	2r	.	.	2ryy	2ryy	2ryy	2ryy	1r	.	1r	.
.	.	.	.	.	16b-\	.	16ee-'>\LL	.	.	.	.	.	.	.	.	.	.	.	.	.	.	.	.	.	.	.	.	.
.	.	.	8r	.	16b-\	.	16ee-'>\	.	.	.	.	8e-\	et	.	.	.	.	.	.	.	.	.	.	.	.	.	.	.
.	.	.	.	.	16b-\JJ	.	16ee-'>\JJ	.	.	.	.	.	.	.	.	.	.	.	.	.	.	.	.	.	.	.	.	.
*	*	*	*	*	*Xtremolo	*	*	*	*	*	*	*	*	*	*	*	*	*	*	*	*	*	*	*	*	*	*	*
8F\L	X 7	.	16c/LL	.	16a\LL	.	16r	.	.	.	.	8e-\	ho-	.	.	.	.	.	.	.	.	.	.	.	.	.	.	.
.	.	.	16A/	.	16a\	.	16ee-'>\LL	.	.	.	.	.	.	.	.	.	.	.	.	.	.	.	.	.	.	.	.	.
8F\J	.	.	16A/	.	16cc\	.	16ee-'>\	.	.	.	.	8e-\	-mo	.	.	.	.	.	.	.	.	.	.	.	.	.	.	.
.	.	.	16A/JJ	.	16cc\JJ	.	16ee-'>\JJ	.	.	.	.	.	.	.	.	.	.	.	.	.	.	.	.	.	.	.	.	.
=23	=23	=23	=23	=23	=23	=23	=23	=23	=23	=23	=23	=23	=23	=23	=23	=23	=23	=23	=23	=23	=23	=23	=23	=23	=23	=23	=23	=23
!	!	!	!	!	!	!	!	!	!	!	!	!LO:TX:a:t=P:problem:niejednoznaczny zapis łuków w tym takcie	!	!	!	!	!	!	!	!	!	!	!	!	!	!	!	!
8BB-/	.	.	8B-/	.	8f/	.	(>16ee-\LL	.	2r	.	.	16e-\LL	fa-	.	2r	.	.	2r	.	.	2ryy	2ryy	2ryy	2ryy	.	.	.	.
.	.	.	.	.	.	.	16dd\JJ)	.	.	.	.	(>16d\	.	.	.	.	.	.	.	.	.	.	.	.	.	.	.	.
8r	.	.	8r	.	8r	.	8r	.	.	.	.	16f\	.	.	.	.	.	.	.	.	.	.	.	.	.	.	.	.
.	.	.	.	.	.	.	.	.	.	.	.	16d\JJ)	.	.	.	.	.	.	.	.	.	.	.	.	.	.	.	.
!	!	!	!	!	!	!	!	!	!	!	!	!LO:LB:g=original	!	!	!	!	!	!	!	!	!	!	!	!	!	!	!	!
!LO:TX:b:i:t=V&colon; S&colon;	!	!	!	!	!	!	!	!	!	!	!	!	!	!	!	!	!	!	!	!	!	!	!	!	!	!	!	!
8E-\	X 6	.	8c/	.	8g/	.	8g/	.	.	.	.	16d\LL	.	.	.	.	.	.	.	.	.	.	.	.	.	.	.	.
.	.	.	.	.	.	.	.	.	.	.	.	(>16c\	.	.	.	.	.	.	.	.	.	.	.	.	.	.	.	.
!LO:SIC:v:t=custos F	!	!	!	!	!	!	!	!	!	!	!	!	!	!	!	!	!	!	!	!	!	!	!	!	!	!	!	!
8r	.	.	8r	.	8r	.	8r	.	.	.	.	16e-\	.	.	.	.	.	.	.	.	.	.	.	.	.	.	.	.
.	.	.	.	.	.	.	.	.	.	.	.	16d\JJ)	.	.	.	.	.	.	.	.	.	.	.	.	.	.	.	.
!LO:PB:g=original	!	!	!	!	!LO:LB:g=original	!	!	!	!	!	!	!	!	!	!	!	!	!	!	!	!	!	!	!	!	!	!	!
=24	=24	=24	=24	=24	=24	=24	=24	=24	=24	=24	=24	=24	=24	=24	=24	=24	=24	=24	=24	=24	=24	=24	=24	=24	=24	=24	=24	=24
*	*	*	*	*	*tremolo	*	*tremolo	*	*	*	*	*	*	*	*	*	*	*	*	*	*	*	*	*	*	*	*	*
8F\	6 4	.	8F/	.	16d/LL	.	16b-/LL	.	2r	.	.	4B-\	.	.	2r	.	.	2r	.	.	2ryy	2ryy	2ryy	2ryy	2r	.	2r	.
.	.	.	.	.	16d/	.	16b-/	.	.	.	.	.	.	.	.	.	.	.	.	.	.	.	.	.	.	.	.	.
8r	.	.	8r	.	16d/	.	16b-/	.	.	.	.	.	.	.	.	.	.	.	.	.	.	.	.	.	.	.	.	.
.	.	.	.	.	16d/JJ	.	16b-/JJ	.	.	.	.	.	.	.	.	.	.	.	.	.	.	.	.	.	.	.	.	.
*	*	*	*	*	*Xtremolo	*	*Xtremolo	*	*	*	*	*	*	*	*	*	*	*	*	*	*	*	*	*	*	*	*	*
8FF/	5 3	.	8F/	.	16d/LL	.	(<16f/LL	.	.	.	.	(>16d\LL	.	.	.	.	.	.	.	.	.	.	.	.	.	.	.	.
.	.	.	.	.	(<16c/	.	16e-/	.	.	.	.	16c\JJ)	.	.	.	.	.	.	.	.	.	.	.	.	.	.	.	.
8r	.	.	8r	.	16B-/)	.	16d/)	.	.	.	.	(>16B-\LL	-ctuſ	.	.	.	.	.	.	.	.	.	.	.	.	.	.	.
.	.	.	.	.	16A/JJ	.	16c/JJ	.	.	.	.	16A\JJ)	.	.	.	.	.	.	.	.	.	.	.	.	.	.	.	.
!	!	!	!LO:LB:g=original	!	!	!	!	!	!	!	!	!	!	!	!	!	!	!	!	!	!	!	!	!	!	!	!LO:PB:g=original	!
=25	=25	=25	=25	=25	=25	=25	=25	=25	=25	=25	=25	=25	=25	=25	=25	=25	=25	=25	=25	=25	=25	=25	=25	=25	=25	=25	=25	=25
*tremolo	*	*	*	*	*	*	*	*	*	*	*	*	*	*	*	*	*	*	*	*	*	*	*	*	*	*	*	*
!	!	!LO:DY:b:t=fpo.	!	!LO:DY:b:t=fp&colon;	!	!LO:DY:a:t=fp&colon;:rj	!	!LO:DY:a:t=fp&colon;:rj	!	!	!	!	!	!	!	!	!	!	!	!	!	!	!	!	!	!LO:DY:b:t=po.	!	!LO:DY:b:t=p&colon;
16BB-/LL	.	fp	16B-/LL	fp	16.f/L	fp	16.dd\LL	fp	2r	.	.	8B-\|	est	.	2r	.	.	2r	.	.	2ryy	2ryy	2ryy	2ryy	2dd\	p	2ff\	p
16BB-/	.	.	16B-/	.	.	.	.	.	.	.	.	.	.	.	.	.	.	.	.	.	.	.	.	.	.	.	.	.
.	.	.	.	.	(<64g/	.	(>64ee-\LL	.	.	.	.	.	.	.	.	.	.	.	.	.	.	.	.	.	.	.	.	.
.	.	.	.	.	64f/J)	.	64dd\JJJJ)	.	.	.	.	.	.	.	.	.	.	.	.	.	.	.	.	.	.	.	.	.
16BB-/	.	.	16B-/	.	16d/	.	16b-\|	.	.	.	.	8r	.	.	.	.	.	.	.	.	.	.	.	.	.	.	.	.
!	!	!	!	!	!	!	!LO:N:vis=16	!	!	!	!	!	!	!	!	!	!	!	!	!	!	!	!	!	!	!	!	!
16BB-/	.	.	16B-/JJ	.	32r	.	32r	.	.	.	.	.	.	.	.	.	.	.	.	.	.	.	.	.	.	.	.	.
.	.	.	.	.	32d/	.	32b-\|	.	.	.	.	.	.	.	.	.	.	.	.	.	.	.	.	.	.	.	.	.
*	*	*	*tremolo	*	*	*	*	*	*	*	*	*	*	*	*	*	*	*	*	*	*	*	*	*	*	*	*	*
!	!	!	!	!	!LO:TX:t=P:problem:mixed beam	!	!	!	!	!	!	!	!	!	!	!	!	!	!	!	!	!	!	!	!	!	!	!
16BB-X/	.	.	16B-/LL	.	(>8f/L	.	(>8dd\L	.	.	.	.	4r	.	.	.	.	.	.	.	.	.	.	.	.	.	.	.	.
16BB-X/	.	.	16B-/	.	.	.	.	.	.	.	.	.	.	.	.	.	.	.	.	.	.	.	.	.	.	.	.	.
16BB-X/	.	.	16B-/	.	16dd\Jk)	.	16ff\Jk)	.	.	.	.	.	.	.	.	.	.	.	.	.	.	.	.	.	.	.	.	.
16BB-X/JJ	.	.	16B-/JJ	.	16r	.	16r	.	.	.	.	.	.	.	.	.	.	.	.	.	.	.	.	.	.	.	.	.
*Xtremolo	*	*	*Xtremolo	*	*	*	*	*	*	*	*	*	*	*	*	*	*	*	*	*	*	*	*	*	*	*	*	*
!	!	!	!	!	!	!	!LO:LB:g=original	!	!	!	!	!	!	!	!	!	!	!	!	!	!	!	!	!	!	!	!	!
=26	=26	=26	=26	=26	=26	=26	=26	=26	=26	=26	=26	=26	=26	=26	=26	=26	=26	=26	=26	=26	=26	=26	=26	=26	=26	=26	=26	=26
!	!	!	!	!LO:DY:a:t=fp&colon;	!LO:TX:t=P:problem:mixed beam	!LO:DY:a:t=fp&colon;	!	!LO:DY:b:t=fp&colon;:rj	!	!	!	!LO:N:vis=00	!	!	!	!	!	!	!	!	!	!	!	!	!	!	!	!
16BB-/LL	6 4	.	16E-/LL	fp	(>8g/L	fp	16.bb-\LL	fp	2r	.	.	0r	.	.	2r	.	.	2r	.	.	2ryy	2ryy	2ryy	2ryy	[>4ee-\	.	[>4gg\	.
16BB-/	.	.	16B-/	.	.	.	.	.	.	.	.	.	.	.	.	.	.	.	.	.	.	.	.	.	.	.	.	.
.	.	.	.	.	.	.	(>64ccc\LL	.	.	.	.	.	.	.	.	.	.	.	.	.	.	.	.	.	.	.	.	.
.	.	.	.	.	.	.	64bb-\JJJJ)	.	.	.	.	.	.	.	.	.	.	.	.	.	.	.	.	.	.	.	.	.
16BB-/	.	.	16B-/	.	16ee-\Jk)	.	16gg\|	.	.	.	.	.	.	.	.	.	.	.	.	.	.	.	.	.	.	.	.	.
!	!	!	!	!	!	!	!LO:N:vis=16r	!	!	!	!	!	!	!	!	!	!	!	!	!	!	!	!	!	!	!	!	!
16BB-/JJ	.	.	16B-/JJ	.	16r	.	32r	.	.	.	.	.	.	.	.	.	.	.	.	.	.	.	.	.	.	.	.	.
.	_ _	.	.	.	.	.	32gg\|	.	.	.	.	.	.	.	.	.	.	.	.	.	.	.	.	.	.	.	.	.
!	!	!	!	!	!LO:TX:t=P:problem:mixed beam	!	!	!	!	!	!	!	!	!	!	!	!	!	!	!	!	!	!	!	!	!	!	!
16BB-/LL	.	.	16B-/LL	.	(>8ee-\L	.	(>8gg\L	.	.	.	.	.	.	.	.	.	.	.	.	.	.	.	.	.	8ee-\]	.	8gg\]	.
16BB-/	x	.	16B-/	.	.	.	.	.	.	.	.	.	.	.	.	.	.	.	.	.	.	.	.	.	.	.	.	.
16BB-/JJ	.	.	16B-/JJ	.	16g/Jk)	.	16ee-\Jk)	.	.	.	.	.	.	.	.	.	.	.	.	.	.	.	.	.	8r	.	8r	.
!	!	!	!	!	!	!	!LO:N:vis=16	!	!	!	!	!	!	!	!	!	!	!	!	!	!	!	!	!	!	!	!	!
16r	.	.	16r	.	16r	.	32r	.	.	.	.	.	.	.	.	.	.	.	.	.	.	.	.	.	.	.	.	.
!	!	!	!	!	!	!	!	!LO:DY:a:t=fo&colon;	!	!	!	!	!	!	!	!	!	!	!	!	!	!	!	!	!	!	!	!
.	.	.	.	.	.	.	32f/	f	.	.	.	.	.	.	.	.	.	.	.	.	.	.	.	.	.	.	.	.
!	!	!	!	!	!	!	!	!	!	!	!	!	!	!	!	!	!	!	!	!	!	!	!	!	!LO:LB:g=original	!	!	!
=27	=27	=27	=27	=27	=27	=27	=27	=27	=27	=27	=27	=27	=27	=27	=27	=27	=27	=27	=27	=27	=27	=27	=27	=27	=27	=27	=27	=27
!	!	!	!	!	!LO:TX:b:i:t=dol&colon;	!	!	!LO:HP:b:t=decres	!	!	!	!	!	!	!	!	!	!	!	!	!	!	!	!	!	!	!	!
8F\	.	.	8r	.	8r	.	[<2ff\	>	2r	.	.	.	.	.	2r	.	.	2r	.	.	2ryy	2ryy	2ryy	2ryy	8r	.	8r	.
!	!	!	!LO:TX:a:i:t=dol&colon;	!	!LO:TX:a:t=P:problem:niejednoznaczny zapis łuków	!	!	!	!	!	!	!	!	!	!	!	!	!	!	!	!	!	!	!	!	!	!	!
8r	.	.	(<8A/L	.	(>16ee-\LL	.	.	.	.	.	.	.	.	.	.	.	.	.	.	.	.	.	.	.	(>8ee-\L	.	(>8aa\L	.
.	.	.	.	.	16cc\JJ	.	.	.	.	.	.	.	.	.	.	.	.	.	.	.	.	.	.	.	.	.	.	.
8F\	.	.	8B-/	.	(>16dd\LL)	.	.	.	.	.	.	.	.	.	.	.	.	.	.	.	.	.	.	.	8dd\	.	8bb-\	.
.	.	.	.	.	16b-\	.	.	.	.	.	.	.	.	.	.	.	.	.	.	.	.	.	.	.	.	.	.	.
8r	.	.	8A/J)	.	16ee-\)	.	.	.	.	.	.	.	.	.	.	.	.	.	.	.	.	.	.	.	8ee-\J)	.	8aa\J)	.
.	.	.	.	.	16cc\JJ	.	.	.	.	.	.	.	.	.	.	.	.	.	.	.	.	.	.	.	.	.	.	.
=28	=28	=28	=28	=28	=28	=28	=28	=28	=28	=28	=28	=28	=28	=28	=28	=28	=28	=28	=28	=28	=28	=28	=28	=28	=28	=28	=28	=28
8BB-\L	.	.	8B-/L	.	16dd\LL	.	16ff\LL]	.	2r	.	.	.	.	.	2r	.	.	2r	.	.	2ryy	2ryy	2ryy	2ryy	8dd\	.	8bb-\	.
.	.	.	.	.	16b-\	.	(>16dd\	.	.	.	.	.	.	.	.	.	.	.	.	.	.	.	.	.	.	.	.	.
8E-\J	X 6	.	8E-/	.	(>16g\	.	16ee-\	.	.	.	.	.	.	.	.	.	.	.	.	.	.	.	.	.	8r	.	8r	.
.	.	.	.	.	16e-\JJ)	.	16cc\JJ)	.	.	.	.	.	.	.	.	.	.	.	.	.	.	.	.	.	.	.	.	.
8F\L	X 4	.	8F/	.	16d/LL	.	16b-\LL	.	.	.	.	.	.	.	.	.	.	.	.	.	.	.	.	.	(>16b-\LL	.	(>16dd\LL	.
.	.	.	.	.	(<16f/	.	(>16dd\	.	.	.	.	.	.	.	.	.	.	.	.	.	.	.	.	.	16dd\)	.	16ff\	.
8F\J	X 3	.	8F/J	.	16e-/)	.	16cc\	.	.	.	.	.	.	.	.	.	.	.	.	.	.	.	.	.	(>16cc\	.	16ee-\)	.
.	.	.	.	.	16c/JJ	.	16a\JJ)	.	.	.	.	.	.	.	.	.	.	.	.	.	.	.	.	.	16a\JJ)	.	16cc\JJ	.
!	!	!	!	!	!LO:PB:g=original	!	!	!	!	!	!	!	!	!	!	!	!	!	!	!	!	!	!	!	!	!	!	!
=29	=29	=29	=29	=29	=29	=29	=29	=29	=29	=29	=29	=29	=29	=29	=29	=29	=29	=29	=29	=29	=29	=29	=29	=29	=29	=29	=29	=29
!	!	!	!	!	!	!	!LO:TX:b:i:t=Crucifixus	!	!LO:TX:a:i:t=Solo:rj	!	!	!	!	!	!	!	!	!	!	!	!	!	!	!	!	!	!	!
8BB-/	.	.	16F/LL	.	16d/LL	.	16b-'>\LL	.	(>4B-\	Cru-	.	.	.	.	2r	.	.	2r	.	.	2ryy	2ryy	2ryy	2ryy	8b-\	.	8dd\	.
.	.	.	16F/	.	16d/	.	16b-'>\	.	.	.	.	.	.	.	.	.	.	.	.	.	.	.	.	.	.	.	.	.
8r	.	.	16F/	.	16d/	.	16b-'>\	.	.	.	.	.	.	.	.	.	.	.	.	.	.	.	.	.	8r	.	8r	.
.	.	.	16F/JJ	.	16d/JJ	.	16b-'>\JJ	.	.	.	.	.	.	.	.	.	.	.	.	.	.	.	.	.	.	.	.	.
8BB-/	X 6	.	16r	.	16r	.	16r	.	16G\LL)	.	.	.	.	.	.	.	.	.	.	.	.	.	.	.	4r	.	4r	.
.	.	.	16G/LL	.	(<16d'</LL	.	(<16b-'</LL	.	16B-\JJ	.	.	.	.	.	.	.	.	.	.	.	.	.	.	.	.	.	.	.
8r	.	.	16G/	.	16d'</	.	16b-'</	.	16G\LL	-ci-	.	.	.	.	.	.	.	.	.	.	.	.	.	.	.	.	.	.
.	.	.	16G/JJ	.	16d'</JJ)	.	16b-'</JJ)	.	16F\JJ	.	.	.	.	.	.	.	.	.	.	.	.	.	.	.	.	.	.	.
=30	=30	=30	=30	=30	=30	=30	=30	=30	=30	=30	=30	=30	=30	=30	=30	=30	=30	=30	=30	=30	=30	=30	=30	=30	=30	=30	=30	=30
*tremolo	*	*	*	*	*	*	*	*	*	*	*	*	*	*	*	*	*	*	*	*	*	*	*	*	*	*	*	*
8BB-/L	n4 2	.	16r	.	16r	.	16r	.	8E\	-fi-	.	8r	.	.	8r	.	.	8r	.	.	2ryy	2ryy	2ryy	2ryy	8r	.	8r	.
.	.	.	16c'>\LL	.	(<16e'</LL	.	(<16g'</LL	.	.	.	.	.	.	.	.	.	.	.	.	.	.	.	.	.	.	.	.	.
8BB-/	.	.	16c'>\	.	16e'</	.	16g'</	.	8E\	-xus	.	16c\	e-	.	16e\	E-	.	16g/	E-	.	.	.	.	.	4cc\	.	8.ee\L	.
.	.	.	16c'>\JJ	.	16e'</JJ)	.	16g'</JJ)	.	.	.	.	16c\	-ti-	.	16e\	-ti-	.	16g/	-ti-	.	.	.	.	.	.	.	.	.
8BB-/	.	.	16r	.	16r	.	16r	.	4r	.	.	8c\	-am	.	8e\	-am	.	8g/	-am	.	.	.	.	.	.	.	.	.
.	.	.	16c\LL	.	(<16e'</LL	.	(<16g'</LL	.	.	.	.	.	.	.	.	.	.	.	.	.	.	.	.	.	.	.	16gg\L	.
8BB-/J	.	.	16c\	.	16e'</	.	16g'</	.	.	.	.	8c\	pro	.	8e\	pro	.	8g/	pro	.	.	.	.	.	[>8cc\	.	16ee\	.
.	.	.	16c\JJ	.	16e'</JJ)	.	16g'</JJ)	.	.	.	.	.	.	.	.	.	.	.	.	.	.	.	.	.	.	.	16gg\JJ	.
*Xtremolo	*	*	*	*	*	*	*	*	*	*ij	*	*	*	*	*	*	*	*	*	*	*	*	*	*	*	*	*	*
!	!	!	!	!	!	!	!LO:LB:g=original	!	!	!	!	!	!	!	!	!	!	!	!	!	!	!	!	!	!	!	!	!
=31	=31	=31	=31	=31	=31	=31	=31	=31	=31	=31	=31	=31	=31	=31	=31	=31	=31	=31	=31	=31	=31	=31	=31	=31	=31	=31	=31	=31
8AA/L	X 6	.	8c\	.	16f/LL	.	16f/LL	.	8r	.	.	8c\	no-	.	8f\	no-	.	8a\	no-	.	2ryy	2ryy	2ryy	2ryy	8cc\]	.	8ff\	.
.	.	.	.	.	16c/	.	(<16an'</	.	.	.	.	.	.	.	.	.	.	.	.	.	.	.	.	.	.	.	.	.
8FF/	.	.	8r	.	16c/	.	16a'</	.	[>8F\	Cru-	.	8c\	-bis	.	8f\	-bis	.	8a\	-biſ	.	.	.	.	.	8r	.	8r	.
.	.	.	.	.	16c/JJ	.	16a'</JJ)	.	.	.	.	.	.	.	.	.	.	.	.	.	.	.	.	.	.	.	.	.
!	!	!	!LO:LB:g=original	!	!	!	!	!	!	!	!	!	!	!	!	!	!	!	!	!	!	!	!	!	!	!	!	!
8FF/J	.	.	16r	.	16r	.	16r	.	16F\LL]	.	.	4r	.	.	4r	.	.	4r	.	.	.	.	.	.	4r	.	4r	.
.	.	.	16F'</LL	.	16c/LL	.	(<16a'</LL	.	16A\JJ	.	.	.	.	.	.	.	.	.	.	.	.	.	.	.	.	.	.	.
8r	.	.	16F'</	.	16c/	.	16a'</	.	(>16A\LL	-ci-	.	.	.	.	.	.	.	.	.	.	.	.	.	.	.	.	.	.
.	.	.	16F'</JJ	.	16c/JJ	.	16a'</JJ)	.	16c\JJ)	.	.	.	.	.	.	.	.	.	.	.	.	.	.	.	.	.	.	.
!LO:LB:g=original	!	!	!	!	!	!	!	!	!	!	!	!	!	!	!	!	!	!	!	!	!	!	!	!	!	!	!	!
=32	=32	=32	=32	=32	=32	=32	=32	=32	=32	=32	=32	=32	=32	=32	=32	=32	=32	=32	=32	=32	=32	=32	=32	=32	=32	=32	=32	=32
8FF/	X 7	.	16r	.	16r	.	16r	.	(>16c\LL	-fi-	.	8r	.	.	8r	.	.	8r	.	.	2ryy	2ryy	2ryy	2ryy	8r	.	8r	.
.	.	.	16F'</LL	.	16c/LL	.	(<16a'</LL	.	16E-X\JJ)	.	.	.	.	.	.	.	.	.	.	.	.	.	.	.	.	.	.	.
*	*	*	*	*	*	*	*	*	*	*	*	*	*	*	*	*	*	*	*ij	*	*	*	*	*	*	*	*	*
8r	.	.	16F'</	.	16c/	.	16a'</	.	8E-\	-xus	.	16e-\	e-	.	16a\	E-	.	16cc\	E-	.	.	.	.	.	[>4cc\	.	(>4ff\	.
*	*	*	*	*	*	*	*	*	*	*Xij	*	*	*	*	*	*	*	*	*	*	*	*	*	*	*	*	*	*
.	.	.	16F'</JJ	.	16c/JJ	.	16a'</JJ)	.	.	.	.	16e-\	-ti-	.	16a\	-ti-	.	16cc\	-ti-	.	.	.	.	.	.	.	.	.
8AA/	6 5	.	16r	.	16r	.	16r	.	4r	.	.	8e-\	-am	.	8f\	-am	.	8cc\	-am	.	.	.	.	.	.	.	.	.
.	.	.	16e-'>\LL	.	16f/LL|	.	(>16cc'>\LL	.	.	.	.	.	.	.	.	.	.	.	.	.	.	.	.	.	.	.	.	.
!	!	!	!	!	!	!	!	!	!	!	!	!LO:LB:g=original	!	!	!LO:SIC:l:v:s=pro	!	!	!	!	!	!	!	!	!	!	!	!	!
8r	.	.	(>16e-\	.	(<16f/	.	16cc'>\	.	.	.	.	8e-\	pro	.	8f\	pron	.	8cc\	pro	.	.	.	.	.	8cc\]	.	8ee-\)	.
.	.	.	16f\JJ)	.	16e-X/JJ)	.	16cc'>\JJ)	.	.	.	.	.	.	.	.	.	.	.	.	.	.	.	.	.	.	.	.	.
!	!	!	!	!	!	!	!	!	!	!	!	!	!	!	!LO:LB:g=original	!	!	!	!	!	!	!	!	!	!	!	!	!
=33	=33	=33	=33	=33	=33	=33	=33	=33	=33	=33	=33	=33	=33	=33	=33	=33	=33	=33	=33	=33	=33	=33	=33	=33	=33	=33	=33	=33
*	*	*	*tremolo	*	*	*	*	*	*	*	*	*	*	*	*	*	*	*	*	*	*	*	*	*	*	*	*	*
8BB-/	.	.	8F/L	.	(<16e-/LL	.	(>16cc\LL	.	8r	.	.	(>16e-\LL	no-	.	8f\	no-	.	(>16cc\LL	no-	.	2ryy	2ryy	2ryy	2ryy	(>16cc\LL	.	(>16ee-\LL	.
.	.	.	.	.	16d/J)	.	16b-\J)	.	.	.	.	16d\JJ)	.	.	.	.	.	16b-\JJ)	.	.	.	.	.	.	16b-\J)	.	16dd\J)	.
8r	.	.	8F/	.	8d/J	.	8b-\J|	.	8B-\	sub	.	8d\	-bis	.	8f\	-bis	.	8b-\	-biſ	.	.	.	.	.	8b-\J|	.	8dd\J|	.
!	!	!	!	!	!	!	!	!	!LO:LB:g=original	!	!	!	!	!	!	!	!	!	!	!	!	!	!	!	!	!	!	!
*	*	*	*	*	*	*	*	*	*	*	*	*	*	*	*	*	*	*	*Xij	*	*	*	*	*	*	*	*	*
8BB-/	.	.	8F/	.	8d/L	.	8b-\L|	.	16.B-\	Pon-	.	4r	.	.	4r	.	.	4r	.	.	.	.	.	.	4r	.	4r	.
.	.	.	.	.	.	.	.	.	32B-\	ti-	.	.	.	.	.	.	.	.	.	.	.	.	.	.	.	.	.	.
8r	.	.	8F/J	.	8d/J	.	8b-\J|	.	16.B-\	-o	.	.	.	.	.	.	.	.	.	.	.	.	.	.	.	.	.	.
.	.	.	.	.	.	.	.	.	32B-\	Pi-	.	.	.	.	.	.	.	.	.	.	.	.	.	.	.	.	.	.
*	*	*	*Xtremolo	*	*	*	*	*	*	*	*	*	*	*	*	*	*	*	*	*	*	*	*	*	*	*	*	*
!	!	!	!	!	!LO:LB:g=original	!	!	!	!	!	!	!	!	!	!	!	!	!	!	!	!	!	!	!	!	!	!	!
=34	=34	=34	=34	=34	=34	=34	=34	=34	=34	=34	=34	=34	=34	=34	=34	=34	=34	=34	=34	=34	=34	=34	=34	=34	=34	=34	=34	=34
8BB-/	.	.	8F/	.	8d/	.	8b-\|	.	8B-\	-la-	.	8r	.	.	8r	.	.	8r	.	.	2ryy	2ryy	2ryy	2ryy	8r	.	8r	.
8r	.	.	8r	.	8r	.	8r	.	8BB-/	-to	.	8B-\	sub	.	8f\	sub	.	8dd\	sub	.	.	.	.	.	4dd\	.	4ff\	.
!	!	!	!	!	!	!	!	!	!	!	!	!	!	!	!	!	!	!LO:LB:g=original	!	!	!	!	!	!	!	!	!	!
8BB-/	.	.	8B-/	.	8f/	.	8dd\|	.	4r	.	.	16B-\	Pon-	.	16f\	Pon-	.	16dd\	Pon-	.	.	.	.	.	.	.	.	.
.	.	.	.	.	.	.	.	.	.	.	.	16B-\	-ti-	.	16f\	-ti-	.	16dd\	-ti-	.	.	.	.	.	.	.	.	.
8r	.	.	8r	.	8r	.	8r	.	.	.	.	16B-\	-o	.	16f\	-o	.	16dd\	-o	.	.	.	.	.	8dd\	.	8ff\	.
.	.	.	.	.	.	.	.	.	.	.	.	16B-\	Pi-	.	16f\	Pi-	.	16dd\	Pi-	.	.	.	.	.	.	.	.	.
!	!	!	!	!	!	!	!	!	!	!	!	!	!	!	!	!	!	!	!	!	!	!	!	!	!LO:LB:g=original	!	!	!
=35	=35	=35	=35	=35	=35	=35	=35	=35	=35	=35	=35	=35	=35	=35	=35	=35	=35	=35	=35	=35	=35	=35	=35	=35	=35	=35	=35	=35
8AA/	X 6|	.	8d\	.	32f#X/LLL	.	8cc\|	.	8r	.	.	8d\	-la-	.	8f#X\	-la-	.	8cc\	-la-	.	2ryy	2ryy	2ryy	2ryy	[<2cc\	.	2ff#X\	.
.	.	.	.	.	(<32d/	.	.	.	.	.	.	.	.	.	.	.	.	.	.	.	.	.	.	.	.	.	.	.
.	.	.	.	.	32A/)	.	.	.	.	.	.	.	.	.	.	.	.	.	.	.	.	.	.	.	.	.	.	.
.	.	.	.	.	32d/JJJ	.	.	.	.	.	.	.	.	.	.	.	.	.	.	.	.	.	.	.	.	.	.	.
8r	.	.	8r	.	32f#/LLL	.	8r	.	8A\	sub	.	8d\	-to	.	8f#\	-to	.	8cc\	-to	.	.	.	.	.	.	.	.	.
.	.	.	.	.	(<32d/	.	.	.	.	.	.	.	.	.	.	.	.	.	.	.	.	.	.	.	.	.	.	.
.	.	.	.	.	32A/)	.	.	.	.	.	.	.	.	.	.	.	.	.	.	.	.	.	.	.	.	.	.	.
.	.	.	.	.	32d/JJJ	.	.	.	.	.	.	.	.	.	.	.	.	.	.	.	.	.	.	.	.	.	.	.
8A\	X _	.	8d\	.	32f#/LLL	.	8cc\|	.	16A\	Pon-	.	4r	.	.	4r	.	.	4r	.	.	.	.	.	.	.	.	.	.
.	x	.	.	.	(<32d/	.	.	.	.	.	.	.	.	.	.	.	.	.	.	.	.	.	.	.	.	.	.	.
.	.	.	.	.	32A/)	.	.	.	16A\	-ti-	.	.	.	.	.	.	.	.	.	.	.	.	.	.	.	.	.	.
.	.	.	.	.	32d/JJJ	.	.	.	.	.	.	.	.	.	.	.	.	.	.	.	.	.	.	.	.	.	.	.
8r	.	.	8r	.	32f#/LLL	.	8r	.	16A\	-o	.	.	.	.	.	.	.	.	.	.	.	.	.	.	.	.	.	.
.	.	.	.	.	(<32d/	.	.	.	.	.	.	.	.	.	.	.	.	.	.	.	.	.	.	.	.	.	.	.
.	.	.	.	.	32A/)	.	.	.	16A\	Pi-	.	.	.	.	.	.	.	.	.	.	.	.	.	.	.	.	.	.
.	.	.	.	.	32d/JJJ	.	.	.	.	.	.	.	.	.	.	.	.	.	.	.	.	.	.	.	.	.	.	.
=36	=36	=36	=36	=36	=36	=36	=36	=36	=36	=36	=36	=36	=36	=36	=36	=36	=36	=36	=36	=36	=36	=36	=36	=36	=36	=36	=36	=36
8F#X\	6 5	.	8d\	.	8a/	.	8cc\|	.	(>16A\LL	lat-	.	8r	.	.	8r	.	.	8r	.	.	2ryy	2ryy	2ryy	2ryy	2cc\]	.	2aa\	.
.	.	.	.	.	.	.	.	.	16F#X\JJ)	.	.	.	.	.	.	.	.	.	.	.	.	.	.	.	.	.	.	.
*	*	*	*	*	*	*	*	*	*	*	*	*	*	*	*	*ij	*	*	*ij	*	*	*	*	*	*	*	*	*
8r	.	.	8r	.	8r	.	8r	.	8F#\	-o	.	8d\	sub	.	8a\	sub	.	8cc\	sub	.	.	.	.	.	.	.	.	.
8F#\	.	.	8d\	.	8a/	.	8cc\|	.	4r	.	.	16d\	Pon-	.	16a\	Pon-	.	16cc\	Pon-	.	.	.	.	.	.	.	.	.
.	.	.	.	.	.	.	.	.	.	.	.	16d\	-ti-	.	16a\	-ti-	.	16cc\	-ti-	.	.	.	.	.	.	.	.	.
8r	.	.	8r	.	8r	.	8r	.	.	.	.	16d\	-o	.	16a\	-o	.	16cc\	-o	.	.	.	.	.	.	.	.	.
.	.	.	.	.	.	.	.	.	.	.	.	16d\	Pi-	.	16a\	Pi-	.	16cc\	Pi-	.	.	.	.	.	.	.	.	.
!	!	!	!	!	!	!	!LO:LB:g=original	!	!	!	!	!LO:LB:g=original	!	!	!	!	!	!	!	!	!	!	!	!	!	!	!LO:LB:g=original	!
=37	=37	=37	=37	=37	=37	=37	=37	=37	=37	=37	=37	=37	=37	=37	=37	=37	=37	=37	=37	=37	=37	=37	=37	=37	=37	=37	=37	=37
8G\	X -	.	8d\	.	32g/LLL	.	8b-\|	.	8r	.	.	8d\	-la-	.	8g\	-la-	.	8b-\	-la-	.	2ryy	2ryy	2ryy	2ryy	[>4b-\	.	4gg\	.
.	.	.	.	.	(<32d/	.	.	.	.	.	.	.	.	.	.	.	.	.	.	.	.	.	.	.	.	.	.	.
.	.	.	.	.	32B-/)	.	.	.	.	.	.	.	.	.	.	.	.	.	.	.	.	.	.	.	.	.	.	.
.	.	.	.	.	32d/JJJ	.	.	.	.	.	.	.	.	.	.	.	.	.	.	.	.	.	.	.	.	.	.	.
8r	.	.	8r	.	32g/LLL	.	8r	.	8G\	sub	.	8d\	-to	.	8g\	-to	.	8b-\	-to	.	.	.	.	.	.	.	.	.
*	*	*	*	*	*	*	*	*	*	*	*	*	*	*	*	*Xij	*	*	*	*	*	*	*	*	*	*	*	*
.	.	.	.	.	(<32d/	.	.	.	.	.	.	.	.	.	.	.	.	.	.	.	.	.	.	.	.	.	.	.
.	.	.	.	.	32B-/)	.	.	.	.	.	.	.	.	.	.	.	.	.	.	.	.	.	.	.	.	.	.	.
.	.	.	.	.	32d/JJJ	.	.	.	.	.	.	.	.	.	.	.	.	.	.	.	.	.	.	.	.	.	.	.
8G\	X _	.	8d\	.	8g/	.	8b-\|	.	16.G\	Pon-	.	4r	.	.	4r	.	.	4r	.	.	.	.	.	.	8b-\]	.	8gg\	.
.	x	.	.	.	.	.	.	.	32B-\	-ti-	.	.	.	.	.	.	.	.	.	.	.	.	.	.	.	.	.	.
!	!	!	!	!	!	!	!	!	!LO:LB:g=original	!	!	!	!	!	!	!	!	!	!	!	!	!	!	!	!	!	!	!
8r	.	.	8r	.	8r	.	8r	.	16.A\	-o	.	.	.	.	.	.	.	.	.	.	.	.	.	.	8r	.	8r	.
.	.	.	.	.	.	.	.	.	32G\	Pi-	.	.	.	.	.	.	.	.	.	.	.	.	.	.	.	.	.	.
!	!	!	!	!	!	!	!	!	!	!	!	!	!	!	!LO:LB:g=original	!	!	!	!	!	!	!	!	!	!	!	!	!
=38	=38	=38	=38	=38	=38	=38	=38	=38	=38	=38	=38	=38	=38	=38	=38	=38	=38	=38	=38	=38	=38	=38	=38	=38	=38	=38	=38	=38
*	*	*	*tremolo	*	*tremolo	*	*tremolo	*	*2\right	*	*	*	*	*	*	*	*	*	*	*	*	*	*	*	*	*	*	*
!	!	!	!	!	!	!	!	!	!	!	!	!	!	!	!	!	!	!	!	!	!	!	!	!	!	!	!LO:TX:a:i:t=Solo:rj	!
8E-X\	6| -5	.	16B-/LL	.	16g/LL	.	16cc#X\LL	.	2E-X\	-la-	.	8r	.	.	8r	.	.	8r	.	.	2ryy	2ryy	2ryy	2ryy	2cc#X\	.	2gg\	.
.	.	.	16B-/	.	16g/	.	16cc#X\	.	.	.	.	.	.	.	.	.	.	.	.	.	.	.	.	.	.	.	.	.
8r	.	.	16B-/	.	16g/	.	16cc#X\	.	.	.	.	8B-\	ſub	.	8g\	sub	.	8cc#X\	sub	.	.	.	.	.	.	.	.	.
.	.	.	16B-/	.	16g/	.	16cc#X\JJ	.	.	.	.	.	.	.	.	.	.	.	.	.	.	.	.	.	.	.	.	.
8E-\	_ _	.	16B-/	.	16g/	.	16cc#\LL	.	.	.	.	16B-\	Pon-	.	16g\	Pon-	.	16cc#\	Pon-	.	.	.	.	.	.	.	.	.
.	x	.	16B-/	.	16g/	.	16cc#\	.	.	.	.	16B-\	-ti-	.	16g\	-ti-	.	16cc#\	-ti-	.	.	.	.	.	.	.	.	.
8r	.	.	16B-/	.	16g/	.	16cc#\	.	.	.	.	16B-\	-o	.	16g\	-o	.	16cc#\	-o	.	.	.	.	.	.	.	.	.
.	.	.	16B-/JJ	.	16g/JJ	.	16cc#\JJ	.	.	.	.	16B-\	Pi-	.	16g\	Pi-	.	16cc#\	Pi-	.	.	.	.	.	.	.	.	.
*	*	*	*	*	*	*	*Xtremolo	*	*	*	*	*	*	*	*	*	*	*	*	*	*	*	*	*	*	*	*	*
*	*	*	*Xtremolo	*	*Xtremolo	*	*	*	*	*	*	*	*	*	*	*	*	*	*	*	*	*	*	*	*	*	*	*
=39	=39	=39	=39	=39	=39	=39	=39	=39	=39	=39	=39	=39	=39	=39	=39	=39	=39	=39	=39	=39	=39	=39	=39	=39	=39	=39	=39	=39
8D/	6 4	.	16r	.	16r	.	16r	.	8D/	-to	.	8B-\	-la-	.	8g\	-la-	.	8dd\	-la-	.	2ryy	2ryy	2ryy	2ryy	(>4dd\	.	2gg\	.
!	!	!	!	!	!LO:LB:g=original	!	!	!	!	!	!	!	!	!	!	!	!	!	!	!	!	!	!	!	!	!	!	!
.	.	.	16B-'</LL	.	(<16g'</LL	.	(>16dd'>\LL	.	.	.	.	.	.	.	.	.	.	.	.	.	.	.	.	.	.	.	.	.
8r	.	.	16B-'</	.	16g'</	.	16dd'>\	.	16D/	.	.	16B-\	-to	.	16g\	-to	.	16dd\	-to	.	.	.	.	.	.	.	.	.
*	*	*	*	*	*	*	*	*	*	*	*	*	*	*	*	*	*	*	*Xij	*	*	*	*	*	*	*	*	*
.	.	.	16B-'</JJ	.	16g'</JJ)	.	16dd'>\JJ)	.	16D/	sub	.	16B-\	sub	.	16g\	sub	.	16dd\	sub	.	.	.	.	.	.	.	.	.
8C#X/	7 5	.	16r	.	16r	.	16r	.	16C#X/	Pon-	.	16B-\	Pon-	.	16g\	Pon-	.	16ee\	Pon-	.	.	.	.	.	4ee\)	.	.	.
.	.	.	16B-'</LL	.	(<16g'</LL	.	(>16ee'>\LL	.	16C#/	-ti-	.	16B-\	-ti-	.	16g\	-ti-	.	16ee\	-ti-	.	.	.	.	.	.	.	.	.
!	!	!	!	!	!	!	!	!	!	!	!	!LO:TX:a:t=P:problem:znak "+" nad nutą	!	!	!	!	!	!LO:LB:g=original	!	!	!	!	!	!	!	!	!	!
8r	.	.	16B-'</	.	16g'</	.	16ee'>\	.	16C#/	-o	.	16B-\	-o	.	16g\	-o	.	16ee\	-o	.	.	.	.	.	.	.	.	.
.	.	.	16B-'</JJ	.	16g'</JJ)	.	16ee'>\JJ)	.	16C#/	Pi-	.	16B-\	Pi-	.	16g\	Pi-	.	16ee\	Pi-	.	.	.	.	.	.	.	.	.
!LO:LB:g=original	!	!	!LO:LB:g=original	!	!	!	!	!	!	!	!	!	!	!	!	!	!	!	!	!	!	!	!	!	!	!	!	!
=40	=40	=40	=40	=40	=40	=40	=40	=40	=40	=40	=40	=40	=40	=40	=40	=40	=40	=40	=40	=40	=40	=40	=40	=40	=40	=40	=40	=40
8D/	6 4	.	16B-/LL	.	16g/LL|	.	16r	.	8D/	-la-	.	8B-\	-la-	.	8g\	-la-	.	8dd\	-la-	.	2ryy	2ryy	2ryy	2ryy	4dd\	.	8gg\L	.
.	.	.	16B-/	.	16g/|	.	(>16dd'>\LL	.	.	.	.	.	.	.	.	.	.	.	.	.	.	.	.	.	.	.	.	.
8r	.	.	16A/	.	16f#X/|	.	16dd'>\	.	8D/	-to	.	8A/	-to	.	8f#X\	-to	.	8dd\	-to	.	.	.	.	.	.	.	8ff#X\J	.
.	.	.	16A/JJ	.	16f#/JJ|	.	16dd'>\JJ)	.	.	.	.	.	.	.	.	.	.	.	.	.	.	.	.	.	.	.	.	.
*	*	*	*	*	*tremolo	*	*	*	*	*	*	*	*	*	*	*	*	*	*	*	*	*	*	*	*	*	*	*
8D/	5 #3	.	16A/LL	.	16f#/LL	.	16r	.	4r	.	.	4r	.	.	4r	.	.	4r	.	.	.	.	.	.	4r	.	(>16dd\LL	.
.	.	.	16A/	.	16f#/	.	(>16dd'>\LL	.	.	.	.	.	.	.	.	.	.	.	.	.	.	.	.	.	.	.	16ff#\)	.
8r	.	.	16A/	.	16f#/	.	16dd'>\	.	.	.	.	.	.	.	.	.	.	.	.	.	.	.	.	.	.	.	(>16ff#\	.
.	.	.	16A/JJ	.	16f#/JJ	.	16dd'>\JJ)	.	.	.	.	.	.	.	.	.	.	.	.	.	.	.	.	.	.	.	16aa\JJ)	.
*	*	*	*	*	*Xtremolo	*	*	*	*	*	*	*	*	*	*	*	*	*	*	*	*	*	*	*	*	*	*	*
!	!	!	!	!	!	!	!	!	!	!	!	!LO:LB:g=original	!	!	!	!	!	!	!	!	!	!	!	!	!	!	!	!
=41	=41	=41	=41	=41	=41	=41	=41	=41	=41	=41	=41	=41	=41	=41	=41	=41	=41	=41	=41	=41	=41	=41	=41	=41	=41	=41	=41	=41
*tremolo	*	*	*	*	*	*	*	*	*	*	*	*	*	*	*	*	*	*	*	*	*	*	*	*	*	*	*	*
!LO:TX:a:t=1	!	!LO:DY:b	!	!LO:DY:b:t=pp&colon;	!	!LO:DY:a:t=ppo&colon;	!	!LO:DY:a:t=ppia.	!	!	!LO:DY:a:t=ppo:rj	!	!	!LO:DY:a:t=ppo:rj	!	!	!LO:DY:a:t=po:rj	!	!	!LO:DY:a:t=ppo:rj	!	!	!	!	!	!	!	!LO:DY:b:t=pp&colon;
16D/LL	.	pp	16r	pp	16r	pp	16r	pp	4.c\	paſ-	pp	4.e-\	paſ-	pp	4.f#X\	paſ-	p	4.a\	paſ-	pp	2ryy	2ryy	2ryy	2ryy	2ee-\	pp	2ff#X\	pp
16D/	.	.	(<16c'</LL	.	(<16e-X'</LL	.	(<16f#X'</LL 16a	.	.	.	.	.	.	.	.	.	.	.	.	.	.	.	.	.	.	.	.	.
16D/	.	.	16c'</	.	16e-'</	.	16f#'</ 16a	.	.	.	.	.	.	.	.	.	.	.	.	.	.	.	.	.	.	.	.	.
16D/	.	.	16c'</JJ)	.	16e-'</JJ)	.	16f#'</JJ) 16a	.	.	.	.	.	.	.	.	.	.	.	.	.	.	.	.	.	.	.	.	.
16D/	.	.	16r	.	16r	.	16r	.	.	.	.	.	.	.	.	.	.	.	.	.	.	.	.	.	.	.	.	.
16D/	.	.	(<16c'</LL	.	(<16e-'</LL	.	(<16f#'</LL 16a	.	.	.	.	.	.	.	.	.	.	.	.	.	.	.	.	.	.	.	.	.
16D/	.	.	16c'</	.	16e-'</	.	16f#'</ 16a	.	8c\	-sus	.	8e-\	-sus	.	8f#\	-sus	.	8a\	-sus	.	.	.	.	.	.	.	.	.
16D/JJ	.	.	16c'</JJ)	.	16e-'</JJ)	.	16f#'</JJ) 16a	.	.	.	.	.	.	.	.	.	.	.	.	.	.	.	.	.	.	.	.	.
!	!	!	!	!	!	!	!LO:LB:g=original	!	!	!	!	!	!	!	!	!	!	!	!	!	!	!	!	!	!	!	!	!
=42	=42	=42	=42	=42	=42	=42	=42	=42	=42	=42	=42	=42	=42	=42	=42	=42	=42	=42	=42	=42	=42	=42	=42	=42	=42	=42	=42	=42
*	*	*	*	*	*	*	*	*	*	*ij	*	*	*ij	*	*	*ij	*	*	*ij	*	*	*	*	*	*	*	*	*
!LO:TX:b:i:t=taſto.:rj	!	!	!	!	!	!	!	!	!	!	!	!	!	!	!	!	!	!	!	!	!	!	!	!	!	!	!	!
!LO:TX:a:t=2	!	!	!	!	!	!	!	!	!	!	!	!	!	!	!	!	!	!	!	!	!	!	!	!	!	!	!	!
16D/LL	.	.	16r	.	16r	.	16r	.	8B-\	paſ-	.	8d\	paſ-	.	8g\	paſ-	.	8b-\	paſ-	.	2ryy	2ryy	2ryy	2ryy	4dd\	.	[>4gg\	.
16D/	.	.	16B-'</LL	.	(<16d/LL	.	(<16b-'</LL	.	.	.	.	.	.	.	.	.	.	.	.	.	.	.	.	.	.	.	.	.
16D/	.	.	16d'</	.	16g/)	.	16b-'</	.	8G\	-sus	.	8d\	-sus	.	8g\	-sus	.	8b-\	-sus	.	.	.	.	.	.	.	.	.
16D/	.	.	16d'</JJ	.	16g/JJ|	.	16b-'</JJ)	.	.	.	.	.	.	.	.	.	.	.	.	.	.	.	.	.	.	.	.	.
16D/	.	.	16r	.	16r	.	16r	.	4r	.	.	4r	.	.	4r	.	.	4r	.	.	.	.	.	.	4r	.	16gg\LL]	.
16D/	.	.	16d'</LL	.	(<16g'</LL	.	(<16b-'</LL	.	.	.	.	.	.	.	.	.	.	.	.	.	.	.	.	.	.	.	(>16bb-\	.
16D/	.	.	16d'</	.	16g'</	.	16b-'</	.	.	.	.	.	.	.	.	.	.	.	.	.	.	.	.	.	.	.	16aa\	.
16D/JJ	.	.	16d'</JJ	.	16g'</JJ)	.	16b-'</JJ)	.	.	.	.	.	.	.	.	.	.	.	.	.	.	.	.	.	.	.	16gg\JJ)	.
!	!	!	!	!	!	!	!	!	!LO:LB:g=original	!	!	!	!	!	!LO:LB:g=original	!	!	!	!	!	!	!	!	!	!	!	!	!
=43	=43	=43	=43	=43	=43	=43	=43	=43	=43	=43	=43	=43	=43	=43	=43	=43	=43	=43	=43	=43	=43	=43	=43	=43	=43	=43	=43	=43
!LO:TX:a:t=3	!	!	!	!	!	!	!	!	!	!	!	!	!	!	!	!	!	!	!	!	!	!	!	!	!	!	!	!
16D/LL	.	.	16r	.	16r	.	16r	.	4.F#X\	paſ-	.	4.e-\	paſ-	.	4.a\	paſ-	.	4.cc\	paſ-	.	2ryy	2ryy	2ryy	2ryy	2cc\	.	2ee-X\	.
16D/	.	.	16F#X/LL	.	(<16e-'</LL 16a	.	(>16cc'>\LL	.	.	.	.	.	.	.	.	.	.	.	.	.	.	.	.	.	.	.	.	.
16D/	.	.	16F#/	.	16e-'</ 16a	.	16cc'>\	.	.	.	.	.	.	.	.	.	.	.	.	.	.	.	.	.	.	.	.	.
16D/	.	.	16F#/JJ	.	16e-'</JJ) 16a	.	16cc'>\JJ)	.	.	.	.	.	.	.	.	.	.	.	.	.	.	.	.	.	.	.	.	.
16D/	.	.	16r	.	16r	.	16r	.	.	.	.	.	.	.	.	.	.	.	.	.	.	.	.	.	.	.	.	.
16D/	.	.	16F#/LL	.	(<16e-'</LL 16a	.	(>16cc'>\LL	.	.	.	.	.	.	.	.	.	.	.	.	.	.	.	.	.	.	.	.	.
16D/	.	.	16F#/	.	16e-'</ 16a	.	16cc'>\	.	8F#\	-sus	.	8e-\	-sus	.	8a\	-sus	.	8cc\	-sus	.	.	.	.	.	.	.	.	.
16D/JJ	.	.	16F#/JJ	.	16e-'</JJ) 16a	.	16cc'>\JJ)	.	.	.	.	.	.	.	.	.	.	.	.	.	.	.	.	.	.	.	.	.
!	!	!	!	!	!LO:LB:g=original	!	!	!	!	!	!	!	!	!	!	!	!	!	!	!	!	!	!	!	!	!	!	!
=44	=44	=44	=44	=44	=44	=44	=44	=44	=44	=44	=44	=44	=44	=44	=44	=44	=44	=44	=44	=44	=44	=44	=44	=44	=44	=44	=44	=44
!LO:TX:a:t=4	!	!	!	!	!	!	!	!	!	!	!	!	!	!	!	!	!	!	!	!	!	!	!	!	!	!	!	!
16D/LL	.	.	16r	.	16r	.	16r	.	8G\	paſ-	.	8d\	paſ-	.	8g\	paſ-	.	8b-\	paſ-	.	2ryy	2ryy	2ryy	2ryy	4b-\	.	[>4dd\	.
16D/	.	.	16D/LL	.	(<16g'</LL	.	(>16b-'>\LL	.	.	.	.	.	.	.	.	.	.	.	.	.	.	.	.	.	.	.	.	.
16D/	.	.	16D/	.	16g'</	.	16b-'>\	.	8G\	-sus	.	8d\	-sus	.	8g\	-sus	.	8b-\	-sus	.	.	.	.	.	.	.	.	.
16D/	.	.	16D/JJ	.	16g'</JJ)	.	16b-'>\JJ)	.	.	.	.	.	.	.	.	.	.	.	.	.	.	.	.	.	.	.	.	.
16D/	.	.	16r	.	16r	.	16r	.	4r	.	.	4r	.	.	4r	.	.	4r	.	.	.	.	.	.	4r	.	16dd\LL]	.
16D/	.	.	16D/LL	.	(<16g'</LL	.	(>16b-'>\LL	.	.	.	.	.	.	.	.	.	.	.	.	.	.	.	.	.	.	.	16bb-\	.
16D/	.	.	16D/	.	16g'</	.	16b-'>\	.	.	.	.	.	.	.	.	.	.	.	.	.	.	.	.	.	.	.	16aa\	.
16D/JJ	.	.	16D/JJ	.	16g'</JJ)	.	16b-'>\JJ)	.	.	.	.	.	.	.	.	.	.	.	.	.	.	.	.	.	.	.	16gg\JJ	.
=45	=45	=45	=45	=45	=45	=45	=45	=45	=45	=45	=45	=45	=45	=45	=45	=45	=45	=45	=45	=45	=45	=45	=45	=45	=45	=45	=45	=45
!LO:TX:a:t=5	!	!	!	!	!	!	!	!	!	!	!	!	!	!	!	!	!	!	!	!	!	!	!	!	!	!	!	!
16D/LL	.	.	8D/	.	16r	.	16r	.	8D/	paſ-	.	8d\	paſ-	.	8f#X\	paſ-	.	8a\	paſ-	.	2ryy	2ryy	2ryy	2ryy	(<4a/	.	(>4ff#X\	.
16D/	.	.	.	.	(<16f#X'</LL	.	(<16a'</LL	.	.	.	.	.	.	.	.	.	.	.	.	.	.	.	.	.	.	.	.	.
16D/	.	.	8r	.	16f#'</	.	16a'</	.	8D/	sus	.	8d\	sus	.	8f#\	sus	.	8a\	sus	.	.	.	.	.	.	.	.	.
*	*	*	*	*	*	*	*	*	*	*Xij	*	*	*Xij	*	*	*Xij	*	*	*Xij	*	*	*	*	*	*	*	*	*
16D/	.	.	.	.	16f#'</JJ)	.	16a'</JJ)	.	.	.	.	.	.	.	.	.	.	.	.	.	.	.	.	.	.	.	.	.
!	!	!	!LO:LB:g=original	!	!	!	!	!	!	!	!	!	!	!	!	!	!	!	!	!	!	!	!	!	!	!	!	!
16D/	.	.	8D/	.	(<16g/LL	.	16r	.	8D/	et	.	8d\	et	.	8g\	et	.	8b-\	et	.	.	.	.	.	4b-/)	.	4gg\)	.
16D/	.	.	.	.	16d/)	.	(<16b-'</LL	.	.	.	.	.	.	.	.	.	.	.	.	.	.	.	.	.	.	.	.	.
16D/	.	.	8r	.	16g'</	.	16b-'</	.	8D/	se-	.	8d\	ſe-	.	8g\	ſe-	.	8b-\	se-	.	.	.	.	.	.	.	.	.
16D/JJ	.	.	.	.	16g'</JJ	.	16b-'</JJ)	.	.	.	.	.	.	.	.	.	.	.	.	.	.	.	.	.	.	.	.	.
*Xtremolo	*	*	*	*	*	*	*	*	*	*	*	*	*	*	*	*	*	*	*	*	*	*	*	*	*	*	*	*
!	!	!	!	!	!	!	!LO:LB:g=original	!	!	!	!	!	!	!	!	!	!	!	!	!	!	!	!	!	!LO:LB:g=original	!	!	!
=46	=46	=46	=46	=46	=46	=46	=46	=46	=46	=46	=46	=46	=46	=46	=46	=46	=46	=46	=46	=46	=46	=46	=46	=46	=46	=46	=46	=46
16C/LL	.	.	16r	.	16r	.	16r	.	4C/	-pul-	.	4e-X\	-pul-	.	4f#X\	-pul-	.	4a\	-pul-	.	2ryy	2ryy	2ryy	2ryy	4f#X/	.	4ee-X\	.
16C/	.	.	16E-/LL	.	(<16f#X'</LL	.	(<16a'</LL	.	.	.	.	.	.	.	.	.	.	.	.	.	.	.	.	.	.	.	.	.
16C/	.	.	16E-/	.	16f#'</	.	16a'</	.	.	.	.	.	.	.	.	.	.	.	.	.	.	.	.	.	.	.	.	.
16C/JJ	.	.	16E-/JJ	.	16f#'</JJ)	.	16a'</JJ)	.	.	.	.	.	.	.	.	.	.	.	.	.	.	.	.	.	.	.	.	.
*	*	*	*	*	*tremolo	*	*	*	*	*	*	*	*	*	*	*	*	*	*	*	*	*	*	*	*	*	*	*
16BB-/LL	.	.	16r	.	16g/LL	.	16g'</LL	.	8BB-/	-tuſ	.	8d\	-tus	.	8g\	-tus	.	8g\	-tus	.	.	.	.	.	8g/L	.	8dd\L	.
!	!	!	!LO:TX:t=P:problem:mixed beam	!	!	!	!	!	!	!	!	!	!	!	!	!	!	!	!	!	!	!	!	!	!	!	!	!
16BB-/	.	.	16D/LL	.	16g/	.	16g'</	.	.	.	.	.	.	.	.	.	.	.	.	.	.	.	.	.	.	.	.	.
!	!	!	!	!	!	!	!	!	!	!	!	!	!	!	!LO:TX:a:t=P:problem:brak początku łuku	!	!	!	!	!	!	!	!	!	!	!	!	!
16GG/	.	.	16d\	.	16g/	.	16b-'</	.	8GG/	se-	.	8d\	se-	.	(>8g\	se-	.	8b-\	se-	.	.	.	.	.	8b-/J	.	8gg\J	.
16GG/JJ	.	.	16d\JJ	.	16g/JJ	.	16b-'</JJ	.	.	.	.	.	.	.	.	.	.	.	.	.	.	.	.	.	.	.	.	.
*	*	*	*	*	*Xtremolo	*	*	*	*	*	*	*	*	*	*	*	*	*	*	*	*	*	*	*	*	*	*	*
!	!	!	!	!	!	!	!	!	!	!	!	!LO:LB:g=original	!	!	!	!	!	!	!	!	!	!	!	!	!	!	!	!
=47	=47	=47	=47	=47	=47	=47	=47	=47	=47	=47	=47	=47	=47	=47	=47	=47	=47	=47	=47	=47	=47	=47	=47	=47	=47	=47	=47	=47
*	*	*	*^	*	*	*	*	*	*	*	*	*	*	*	*	*	*	*	*	*	*	*	*	*	*	*	*	*
*tremolo	*	*	*	*	*	*	*	*	*	*	*	*	*	*	*	*	*	*	*	*	*	*	*	*	*	*	*	*	*
16D/LL	.	.	16r	4ryy	.	16r	.	16r	.	4.D/	-pul-	.	4.d\	-pul-	.	(>4g\)	-pul-	.	4.a\	-pul-	.	2ryy	2ryy	2ryy	2ryy	2a/	.	4gg\	.
16D/	.	.	16d\LL	.	.	(<16g'</LL	.	(<16a'</LL	.	.	.	.	.	.	.	.	.	.	.	.	.	.	.	.	.	.	.	.	.
16D/	.	.	16d\	.	.	16g'</	.	16a'</	.	.	.	.	.	.	.	.	.	.	.	.	.	.	.	.	.	.	.	.	.
16D/	.	.	16d\JJ	.	.	16g'</JJ)	.	16a'</JJ)	.	.	.	.	.	.	.	.	.	.	.	.	.	.	.	.	.	.	.	.	.
16D/	.	.	16r	16ryy	.	16r	.	16r	.	.	.	.	.	.	.	8f#X\)	.	.	.	.	.	.	.	.	.	.	.	4ff#X\	.
16D/	.	.	16d/LL	16c\LL	.	(<16f#X'</LL	.	(<16a'</LL	.	.	.	.	.	.	.	.	.	.	.	.	.	.	.	.	.	.	.	.	.
16D/	.	.	16d/	16c\	.	16f#'</	.	16a'</	.	8D/	-tuſ	.	8cn\	-tus	.	8f#\	-tus	.	8a\	-tus	.	.	.	.	.	.	.	.	.
16D/JJ	.	.	16d/JJ	16c\JJ	.	16f#'</JJ)	.	16a'</JJ)	.	.	.	.	.	.	.	.	.	.	.	.	.	.	.	.	.	.	.	.	.
!	!	!	!	!	!	!	!	!	!	!	!	!	!	!	!	!	!	!	!LO:LB:g=original	!	!	!	!	!	!	!	!	!LO:LB:g=original	!
=48	=48	=48	=48	=48	=48	=48	=48	=48	=48	=48	=48	=48	=48	=48	=48	=48	=48	=48	=48	=48	=48	=48	=48	=48	=48	=48	=48	=48	=48
16GG/LL	.	.	8d/	8B\	.	8g/L	.	8b/L|	.	4G\	eſt.	.	4B\	est.	.	4g\	est.	.	4g\	eſt	.	2ryy	2ryy	2ryy	2ryy	8b/L	.	8gg\L	.
16GG/	.	.	.	.	.	.	.	.	.	.	.	.	.	.	.	.	.	.	.	.	.	.	.	.	.	.	.	.	.
16GG/	.	.	8r	4.ryy	.	8B/J	.	8d/J|	.	.	.	.	.	.	.	.	.	.	.	.	.	.	.	.	.	8d/J	.	8b\J	.
16GG/	.	.	.	.	.	.	.	.	.	.	.	.	.	.	.	.	.	.	.	.	.	.	.	.	.	.	.	.	.
16GG/	.	.	8G/	.	.	(<16c/LL	.	(<16e-X/LL	.	4r	.	.	4r	.	.	4r	.	.	4r	.	.	.	.	.	.	(<16e-X/LL	.	(>16cc\LL	.
16GG/	.	.	.	.	.	16e-/	.	16g/	.	.	.	.	.	.	.	.	.	.	.	.	.	.	.	.	.	16g/	.	16ee-\	.
16GG/	.	.	8r	.	.	16d/	.	16f/	.	.	.	.	.	.	.	.	.	.	.	.	.	.	.	.	.	16f/	.	16dd\)	.
16GG/JJ	.	.	.	.	.	16c/JJ)	.	16e-/JJ)	.	.	.	.	.	.	.	.	.	.	.	.	.	.	.	.	.	16e-/JJ)	.	16cc\JJ	.
*Xtremolo	*	*	*	*	*	*	*	*	*	*	*	*	*	*	*	*	*	*	*	*	*	*	*	*	*	*	*	*	*
*	*	*	*v	*v	*	*	*	*	*	*	*	*	*	*	*	*	*	*	*	*	*	*	*	*	*	*	*	*	*
=49	=49	=49	=49	=49	=49	=49	=49	=49	=49	=49	=49	=49	=49	=49	=49	=49	=49	=49	=49	=49	=49	=49	=49	=49	=49	=49	=49	=49
!	!	!	!LO:TX:b:i:t=Seq&colon;	!	!	!	!LO:TX:b:i:t=Seq(ue)&colon; Et Resurrexit	!	!	!	!	!	!	!	!	!	!	!	!	!	!	!	!	!	!	!	!	!
2GG;>/	.	.	2G;>/	.	2B;>/	.	2d;>/	.	2r;>	.	.	2r;>	.	.	2r;>	.	.	2r	.	.	2ryy	2ryy	2ryy	2ryy	2d;>/	.	2b;>\	.
==	==	==	==	==	==	==	==	==	==	==	==	==	==	==	==	==	==	==	==	==	==	==	==	==	==	==	==	==
*-	*-	*-	*-	*-	*-	*-	*-	*-	*-	*-	*-	*-	*-	*-	*-	*-	*-	*-	*-	*-	*-	*-	*-	*-	*-	*-	*-	*-
!!!system-decoration: [g1][s6][g2][g3][s14]
!!!RDF**kern: > = above
!!!RDF**kern: < = below
!!!EED: Mateusz Mrugas
!!!EST: 2021-01-28
!!!ENC:Kamil Watkowski
!!!END:2021-01-22
!!!RDF**kern: | = vertical stroke
